(Generated with: DXF2GCODE, Version: PyQt4 Beta, Date: $Date:: 2014-02-11 12:27:10#$)
(Created from file: /home/schef/reiner/reiner_sve.dxf)
(Time: Thu May  8 19:38:10 2014)
G21 (Units in millimeters) G90 (Absolute programming) G64 (Default cutting) G17 (XY plane) G40 (Cancel radius comp.) G49 (Cancel length comp.)
G0 Z  15.000 

(*** LAYER: top ***)
T1 M6
S6000

(* SHAPE Nr: 34 *)
G0 X  25.104 Y  40.682
M3 M8
G0 Z   2.000 
F150
G1 Z  -0.125
F70
G1 X  24.765 Y  41.021
G1 X  24.596 Y  41.402
G1 X  24.553 Y  41.825
G1 X  24.680 Y  42.291
G1 X  24.934 Y  42.587
G1 X  25.188 Y  42.799
G1 X  25.612 Y  42.968
G1 X  25.612 Y  42.968
G1 X  26.120 Y  42.926
G1 X  26.501 Y  42.757
G1 X  26.839 Y  42.418
G1 X  27.009 Y  42.037
G1 X  27.009 Y  41.402
G1 X  26.839 Y  41.021
G1 X  26.501 Y  40.682
G1 X  26.120 Y  40.513
G1 X  25.485 Y  40.513
G1 X  25.104 Y  40.682
F150
G1 Z   2.000
M9 M5

(* SHAPE Nr: 35 *)
G0 X  32.724 Y  40.682
M3 M8
G0 Z   2.000 
F150
G1 Z  -0.125
F70
G1 X  32.385 Y  41.021
G1 X  32.216 Y  41.402
G1 X  32.173 Y  41.825
G1 X  32.300 Y  42.291
G1 X  32.554 Y  42.587
G1 X  32.808 Y  42.799
G1 X  33.232 Y  42.968
G1 X  33.232 Y  42.968
G1 X  33.740 Y  42.926
G1 X  34.121 Y  42.757
G1 X  34.459 Y  42.418
G1 X  34.629 Y  42.037
G1 X  34.629 Y  41.402
G1 X  34.459 Y  41.021
G1 X  34.121 Y  40.682
G1 X  33.740 Y  40.513
G1 X  33.105 Y  40.513
G1 X  32.724 Y  40.682
F150
G1 Z   2.000
M9 M5

(* SHAPE Nr: 36 *)
G0 X  10.202 Y  39.709
M3 M8
G0 Z   2.000 
F150
G1 Z  -0.125
F70
G1 X   9.864 Y  39.878
G1 X   9.610 Y  40.090
G1 X   9.398 Y  40.513
G1 X   9.356 Y  40.936
G1 X   9.440 Y  41.275
G1 X   9.694 Y  41.656
G1 X  10.033 Y  41.868
G1 X  10.329 Y  41.995
G1 X  10.329 Y  41.995
G1 X  10.837 Y  41.952
G1 X  11.176 Y  41.783
G1 X  11.430 Y  41.571
G1 X  11.642 Y  41.148
G1 X  11.642 Y  40.513
G1 X  11.430 Y  40.090
G1 X  11.176 Y  39.878
G1 X  10.837 Y  39.709
G1 X  10.202 Y  39.709
F150
G1 Z   2.000
M9 M5

(* SHAPE Nr: 37 *)
G0 X  20.447 Y  39.582
M3 M8
G0 Z   2.000 
F150
G1 Z  -0.125
F70
G1 X  20.447 Y  41.698
G1 X  20.447 Y  41.698
G1 X  22.564 Y  41.698
G1 X  22.564 Y  39.582
G1 X  20.447 Y  39.582
F150
G1 Z   2.000
M9 M5

(* SHAPE Nr: 38 *)
G0 X  87.842 Y  38.693
M3 M8
G0 Z   2.000 
F150
G1 Z  -0.125
F70
G1 X  87.757 Y  39.031
G1 X  87.757 Y  39.243
G1 X  87.842 Y  39.582
G1 X  88.350 Y  40.090
G1 X  88.604 Y  40.174
G1 X  88.604 Y  40.174
G1 X  88.900 Y  40.174
G1 X  89.239 Y  40.090
G1 X  89.747 Y  39.582
G1 X  89.831 Y  39.243
G1 X  89.831 Y  39.031
G1 X  89.747 Y  38.693
G1 X  89.239 Y  38.185
G1 X  88.900 Y  38.100
G1 X  88.688 Y  38.100
G1 X  88.350 Y  38.185
G1 X  87.842 Y  38.693
F150
G1 Z   2.000
M9 M5

(* SHAPE Nr: 39 *)
G0 X   9.313 Y  37.126
M3 M8
G0 Z   2.000 
F150
G1 Z  -0.125
F70
G1 X   9.313 Y  39.497
G1 X   9.313 Y  39.497
G1 X  11.684 Y  39.497
G1 X  11.684 Y  37.126
G1 X   9.313 Y  37.126
F150
G1 Z   2.000
M9 M5

(* SHAPE Nr: 40 *)
G0 X 102.955 Y  37.888
M3 M8
G0 Z   2.000 
F150
G1 Z  -0.125
F70
G1 X 102.870 Y  38.227
G1 X 102.870 Y  38.439
G1 X 102.955 Y  38.777
G1 X 103.463 Y  39.285
G1 X 103.717 Y  39.370
G1 X 103.717 Y  39.370
G1 X 104.013 Y  39.370
G1 X 104.352 Y  39.285
G1 X 104.860 Y  38.777
G1 X 104.944 Y  38.439
G1 X 104.944 Y  38.227
G1 X 104.860 Y  37.888
G1 X 104.352 Y  37.380
G1 X 104.013 Y  37.296
G1 X 103.801 Y  37.296
G1 X 103.463 Y  37.380
G1 X 102.955 Y  37.888
F150
G1 Z   2.000
M9 M5

(* SHAPE Nr: 41 *)
G0 X  21.082 Y  37.169
M3 M8
G0 Z   2.000 
F150
G1 Z  -0.125
F70
G1 X  20.574 Y  37.677
G1 X  20.489 Y  38.015
G1 X  20.489 Y  38.227
G1 X  20.574 Y  38.566
G1 X  21.082 Y  39.074
G1 X  21.336 Y  39.158
G1 X  21.336 Y  39.158
G1 X  21.632 Y  39.158
G1 X  21.971 Y  39.074
G1 X  22.479 Y  38.566
G1 X  22.564 Y  38.227
G1 X  22.564 Y  38.015
G1 X  22.479 Y  37.677
G1 X  21.971 Y  37.169
G1 X  21.632 Y  37.084
G1 X  21.421 Y  37.084
G1 X  21.082 Y  37.169
F150
G1 Z   2.000
M9 M5

(* SHAPE Nr: 42 *)
G0 X  83.058 Y  36.322
M3 M8
G0 Z   2.000 
F150
G1 Z  -0.125
F70
G1 X  83.058 Y  38.439
G1 X  83.058 Y  38.439
G1 X  85.175 Y  38.439
G1 X  85.175 Y  36.322
G1 X  83.058 Y  36.322
F150
G1 Z   2.000
M9 M5

(* SHAPE Nr: 43 *)
G0 X  67.903 Y  36.915
M3 M8
G0 Z   2.000 
F150
G1 Z  -0.125
F70
G1 X  67.818 Y  37.253
G1 X  67.818 Y  37.465
G1 X  67.903 Y  37.804
G1 X  68.411 Y  38.312
G1 X  68.665 Y  38.396
G1 X  68.665 Y  38.396
G1 X  68.961 Y  38.396
G1 X  69.300 Y  38.312
G1 X  69.808 Y  37.804
G1 X  69.892 Y  37.465
G1 X  69.892 Y  37.253
G1 X  69.808 Y  36.915
G1 X  69.300 Y  36.407
G1 X  68.961 Y  36.322
G1 X  68.749 Y  36.322
G1 X  68.411 Y  36.407
G1 X  67.903 Y  36.915
F150
G1 Z   2.000
M9 M5

(* SHAPE Nr: 44 *)
G0 X  70.443 Y  36.915
M3 M8
G0 Z   2.000 
F150
G1 Z  -0.125
F70
G1 X  70.358 Y  37.253
G1 X  70.358 Y  37.465
G1 X  70.443 Y  37.804
G1 X  70.951 Y  38.312
G1 X  71.205 Y  38.396
G1 X  71.205 Y  38.396
G1 X  71.501 Y  38.396
G1 X  71.840 Y  38.312
G1 X  72.348 Y  37.804
G1 X  72.432 Y  37.465
G1 X  72.432 Y  37.253
G1 X  72.348 Y  36.915
G1 X  71.840 Y  36.407
G1 X  71.501 Y  36.322
G1 X  71.289 Y  36.322
G1 X  70.951 Y  36.407
G1 X  70.443 Y  36.915
F150
G1 Z   2.000
M9 M5

(* SHAPE Nr: 45 *)
G0 X  72.983 Y  36.915
M3 M8
G0 Z   2.000 
F150
G1 Z  -0.125
F70
G1 X  72.898 Y  37.253
G1 X  72.898 Y  37.465
G1 X  72.983 Y  37.804
G1 X  73.491 Y  38.312
G1 X  73.745 Y  38.396
G1 X  73.745 Y  38.396
G1 X  74.041 Y  38.396
G1 X  74.380 Y  38.312
G1 X  74.888 Y  37.804
G1 X  74.972 Y  37.465
G1 X  74.972 Y  37.253
G1 X  74.888 Y  36.915
G1 X  74.380 Y  36.407
G1 X  74.041 Y  36.322
G1 X  73.829 Y  36.322
G1 X  73.491 Y  36.407
G1 X  72.983 Y  36.915
F150
G1 Z   2.000
M9 M5

(* SHAPE Nr: 46 *)
G0 X  75.523 Y  36.915
M3 M8
G0 Z   2.000 
F150
G1 Z  -0.125
F70
G1 X  75.438 Y  37.253
G1 X  75.438 Y  37.465
G1 X  75.523 Y  37.804
G1 X  76.031 Y  38.312
G1 X  76.285 Y  38.396
G1 X  76.285 Y  38.396
G1 X  76.581 Y  38.396
G1 X  76.920 Y  38.312
G1 X  77.428 Y  37.804
G1 X  77.512 Y  37.465
G1 X  77.512 Y  37.253
G1 X  77.428 Y  36.915
G1 X  76.920 Y  36.407
G1 X  76.581 Y  36.322
G1 X  76.369 Y  36.322
G1 X  76.031 Y  36.407
G1 X  75.523 Y  36.915
F150
G1 Z   2.000
M9 M5

(* SHAPE Nr: 47 *)
G0 X  78.063 Y  36.915
M3 M8
G0 Z   2.000 
F150
G1 Z  -0.125
F70
G1 X  77.978 Y  37.253
G1 X  77.978 Y  37.465
G1 X  78.063 Y  37.804
G1 X  78.571 Y  38.312
G1 X  78.825 Y  38.396
G1 X  78.825 Y  38.396
G1 X  79.121 Y  38.396
G1 X  79.460 Y  38.312
G1 X  79.968 Y  37.804
G1 X  80.052 Y  37.465
G1 X  80.052 Y  37.253
G1 X  79.968 Y  36.915
G1 X  79.460 Y  36.407
G1 X  79.121 Y  36.322
G1 X  78.909 Y  36.322
G1 X  78.571 Y  36.407
G1 X  78.063 Y  36.915
F150
G1 Z   2.000
M9 M5

(* SHAPE Nr: 48 *)
G0 X  80.603 Y  36.915
M3 M8
G0 Z   2.000 
F150
G1 Z  -0.125
F70
G1 X  80.518 Y  37.253
G1 X  80.518 Y  37.465
G1 X  80.603 Y  37.804
G1 X  81.111 Y  38.312
G1 X  81.365 Y  38.396
G1 X  81.365 Y  38.396
G1 X  81.661 Y  38.396
G1 X  82.000 Y  38.312
G1 X  82.508 Y  37.804
G1 X  82.592 Y  37.465
G1 X  82.592 Y  37.253
G1 X  82.508 Y  36.915
G1 X  82.000 Y  36.407
G1 X  81.661 Y  36.322
G1 X  81.449 Y  36.322
G1 X  81.111 Y  36.407
G1 X  80.603 Y  36.915
F150
G1 Z   2.000
M9 M5

(* SHAPE Nr: 49 *)
G0 X  97.240 Y  35.941
M3 M8
G0 Z   2.000 
F150
G1 Z  -0.125
F70
G1 X  97.240 Y  38.312
G1 X  97.240 Y  38.312
G1 X  99.610 Y  38.312
G1 X  99.610 Y  35.941
G1 X  97.240 Y  35.941
F150
G1 Z   2.000
M9 M5

(* SHAPE Nr: 50 *)
G0 X  94.742 Y  36.788
M3 M8
G0 Z   2.000 
F150
G1 Z  -0.125
F70
G1 X  94.700 Y  37.211
G1 X  94.784 Y  37.550
G1 X  95.038 Y  37.931
G1 X  95.377 Y  38.142
G1 X  95.673 Y  38.269
G1 X  95.673 Y  38.269
G1 X  96.181 Y  38.227
G1 X  96.520 Y  38.058
G1 X  96.774 Y  37.846
G1 X  96.986 Y  37.423
G1 X  96.986 Y  36.788
G1 X  96.774 Y  36.364
G1 X  96.520 Y  36.153
G1 X  96.181 Y  35.983
G1 X  95.546 Y  35.983
G1 X  95.208 Y  36.153
G1 X  94.954 Y  36.364
G1 X  94.742 Y  36.788
F150
G1 Z   2.000
M9 M5

(* SHAPE Nr: 51 *)
G0 X  52.917 Y  36.534
M3 M8
G0 Z   2.000 
F150
G1 Z  -0.125
F70
G1 X  52.832 Y  36.872
G1 X  52.832 Y  37.084
G1 X  52.917 Y  37.423
G1 X  53.425 Y  37.931
G1 X  53.679 Y  38.015
G1 X  53.679 Y  38.015
G1 X  53.975 Y  38.015
G1 X  54.314 Y  37.931
G1 X  54.822 Y  37.423
G1 X  54.906 Y  37.084
G1 X  54.906 Y  36.872
G1 X  54.822 Y  36.534
G1 X  54.314 Y  36.026
G1 X  53.975 Y  35.941
G1 X  53.763 Y  35.941
G1 X  53.425 Y  36.026
G1 X  52.917 Y  36.534
F150
G1 Z   2.000
M9 M5

(* SHAPE Nr: 52 *)
G0 X  25.104 Y  35.602
M3 M8
G0 Z   2.000 
F150
G1 Z  -0.125
F70
G1 X  24.765 Y  35.941
G1 X  24.596 Y  36.322
G1 X  24.553 Y  36.745
G1 X  24.680 Y  37.211
G1 X  24.934 Y  37.507
G1 X  25.188 Y  37.719
G1 X  25.612 Y  37.888
G1 X  25.612 Y  37.888
G1 X  26.120 Y  37.846
G1 X  26.501 Y  37.677
G1 X  26.839 Y  37.338
G1 X  27.009 Y  36.957
G1 X  27.009 Y  36.322
G1 X  26.839 Y  35.941
G1 X  26.501 Y  35.602
G1 X  26.120 Y  35.433
G1 X  25.485 Y  35.433
G1 X  25.104 Y  35.602
F150
G1 Z   2.000
M9 M5

(* SHAPE Nr: 53 *)
G0 X  32.724 Y  35.602
M3 M8
G0 Z   2.000 
F150
G1 Z  -0.125
F70
G1 X  32.385 Y  35.941
G1 X  32.216 Y  36.322
G1 X  32.173 Y  36.745
G1 X  32.300 Y  37.211
G1 X  32.554 Y  37.507
G1 X  32.808 Y  37.719
G1 X  33.232 Y  37.888
G1 X  33.232 Y  37.888
G1 X  33.740 Y  37.846
G1 X  34.121 Y  37.677
G1 X  34.459 Y  37.338
G1 X  34.629 Y  36.957
G1 X  34.629 Y  36.322
G1 X  34.459 Y  35.941
G1 X  34.121 Y  35.602
G1 X  33.740 Y  35.433
G1 X  33.105 Y  35.433
G1 X  32.724 Y  35.602
F150
G1 Z   2.000
M9 M5

(* SHAPE Nr: 54 *)
G0 X  36.830 Y  36.153
M3 M8
G0 Z   2.000 
F150
G1 Z  -0.125
F70
G1 X  36.745 Y  36.491
G1 X  36.745 Y  36.703
G1 X  36.830 Y  37.042
G1 X  37.338 Y  37.550
G1 X  37.592 Y  37.634
G1 X  37.592 Y  37.634
G1 X  37.888 Y  37.634
G1 X  38.227 Y  37.550
G1 X  38.735 Y  37.042
G1 X  38.820 Y  36.703
G1 X  38.820 Y  36.491
G1 X  38.735 Y  36.153
G1 X  38.227 Y  35.645
G1 X  37.888 Y  35.560
G1 X  37.677 Y  35.560
G1 X  37.338 Y  35.645
G1 X  36.830 Y  36.153
F150
G1 Z   2.000
M9 M5

(* SHAPE Nr: 55 *)
G0 X  87.715 Y  35.518
M3 M8
G0 Z   2.000 
F150
G1 Z  -0.125
F70
G1 X  87.715 Y  37.634
G1 X  87.715 Y  37.634
G1 X  89.831 Y  37.634
G1 X  89.831 Y  35.518
G1 X  87.715 Y  35.518
F150
G1 Z   2.000
M9 M5

(* SHAPE Nr: 56 *)
G0 X  21.082 Y  34.629
M3 M8
G0 Z   2.000 
F150
G1 Z  -0.125
F70
G1 X  20.574 Y  35.137
G1 X  20.489 Y  35.475
G1 X  20.489 Y  35.687
G1 X  20.574 Y  36.026
G1 X  21.082 Y  36.534
G1 X  21.336 Y  36.618
G1 X  21.336 Y  36.618
G1 X  21.632 Y  36.618
G1 X  21.971 Y  36.534
G1 X  22.479 Y  36.026
G1 X  22.564 Y  35.687
G1 X  22.564 Y  35.475
G1 X  22.479 Y  35.137
G1 X  21.971 Y  34.629
G1 X  21.632 Y  34.544
G1 X  21.421 Y  34.544
G1 X  21.082 Y  34.629
F150
G1 Z   2.000
M9 M5

(* SHAPE Nr: 57 *)
G0 X  57.531 Y  34.248
M3 M8
G0 Z   2.000 
F150
G1 Z  -0.125
F70
G1 X  57.446 Y  34.586
G1 X  57.446 Y  34.798
G1 X  57.531 Y  35.137
G1 X  58.039 Y  35.645
G1 X  58.293 Y  35.729
G1 X  58.293 Y  35.729
G1 X  58.589 Y  35.729
G1 X  58.928 Y  35.645
G1 X  59.436 Y  35.137
G1 X  59.521 Y  34.798
G1 X  59.521 Y  34.586
G1 X  59.436 Y  34.248
G1 X  58.928 Y  33.740
G1 X  58.589 Y  33.655
G1 X  58.378 Y  33.655
G1 X  58.039 Y  33.740
G1 X  57.531 Y  34.248
F150
G1 Z   2.000
M9 M5

(* SHAPE Nr: 58 *)
G0 X  59.986 Y  33.613
M3 M8
G0 Z   2.000 
F150
G1 Z  -0.125
F70
G1 X  59.986 Y  35.729
G1 X  59.986 Y  35.729
G1 X  62.103 Y  35.729
G1 X  62.103 Y  33.613
G1 X  59.986 Y  33.613
F150
G1 Z   2.000
M9 M5

(* SHAPE Nr: 59 *)
G0 X  36.830 Y  33.613
M3 M8
G0 Z   2.000 
F150
G1 Z  -0.125
F70
G1 X  36.745 Y  33.951
G1 X  36.745 Y  34.163
G1 X  36.830 Y  34.502
G1 X  37.338 Y  35.010
G1 X  37.592 Y  35.094
G1 X  37.592 Y  35.094
G1 X  37.888 Y  35.094
G1 X  38.227 Y  35.010
G1 X  38.735 Y  34.502
G1 X  38.820 Y  34.163
G1 X  38.820 Y  33.951
G1 X  38.735 Y  33.613
G1 X  38.227 Y  33.105
G1 X  37.888 Y  33.020
G1 X  37.677 Y  33.020
G1 X  37.338 Y  33.105
G1 X  36.830 Y  33.613
F150
G1 Z   2.000
M9 M5

(* SHAPE Nr: 60 *)
G0 X  25.104 Y  30.522
M3 M8
G0 Z   2.000 
F150
G1 Z  -0.125
F70
G1 X  24.765 Y  30.861
G1 X  24.596 Y  31.242
G1 X  24.553 Y  31.665
G1 X  24.680 Y  32.131
G1 X  24.934 Y  32.427
G1 X  25.188 Y  32.639
G1 X  25.612 Y  32.808
G1 X  25.612 Y  32.808
G1 X  26.120 Y  32.766
G1 X  26.501 Y  32.597
G1 X  26.839 Y  32.258
G1 X  27.009 Y  31.877
G1 X  27.009 Y  31.242
G1 X  26.839 Y  30.861
G1 X  26.501 Y  30.522
G1 X  26.120 Y  30.353
G1 X  25.485 Y  30.353
G1 X  25.104 Y  30.522
F150
G1 Z   2.000
M9 M5

(* SHAPE Nr: 61 *)
G0 X  32.385 Y  30.861
M3 M8
G0 Z   2.000 
F150
G1 Z  -0.125
F70
G1 X  32.216 Y  31.242
G1 X  32.173 Y  31.665
G1 X  32.300 Y  32.131
G1 X  32.554 Y  32.427
G1 X  32.808 Y  32.639
G1 X  33.232 Y  32.808
G1 X  33.232 Y  32.808
G1 X  33.740 Y  32.766
G1 X  34.121 Y  32.597
G1 X  34.459 Y  32.258
G1 X  34.629 Y  31.877
G1 X  34.629 Y  31.242
G1 X  34.459 Y  30.861
G1 X  34.121 Y  30.522
G1 X  33.740 Y  30.353
G1 X  33.105 Y  30.353
G1 X  32.724 Y  30.522
G1 X  32.385 Y  30.861
F150
G1 Z   2.000
M9 M5

(* SHAPE Nr: 62 *)
G0 X  36.703 Y  30.480
M3 M8
G0 Z   2.000 
F150
G1 Z  -0.125
F70
G1 X  36.703 Y  32.597
G1 X  36.703 Y  32.597
G1 X  38.820 Y  32.597
G1 X  38.820 Y  30.480
G1 X  36.703 Y  30.480
F150
G1 Z   2.000
M9 M5

(* SHAPE Nr: 63 *)
G0 X  89.958 Y  30.819
M3 M8
G0 Z   2.000 
F150
G1 Z  -0.125
F70
G1 X  89.874 Y  31.157
G1 X  89.874 Y  31.369
G1 X  89.958 Y  31.708
G1 X  90.466 Y  32.216
G1 X  90.720 Y  32.300
G1 X  90.720 Y  32.300
G1 X  91.017 Y  32.300
G1 X  91.355 Y  32.216
G1 X  91.863 Y  31.708
G1 X  91.948 Y  31.369
G1 X  91.948 Y  31.157
G1 X  91.863 Y  30.819
G1 X  91.355 Y  30.311
G1 X  91.017 Y  30.226
G1 X  90.805 Y  30.226
G1 X  90.466 Y  30.311
G1 X  89.958 Y  30.819
F150
G1 Z   2.000
M9 M5

(* SHAPE Nr: 64 *)
G0 X  97.578 Y  30.819
M3 M8
G0 Z   2.000 
F150
G1 Z  -0.125
F70
G1 X  97.494 Y  31.157
G1 X  97.494 Y  31.369
G1 X  97.578 Y  31.708
G1 X  98.086 Y  32.216
G1 X  98.340 Y  32.300
G1 X  98.340 Y  32.300
G1 X  98.637 Y  32.300
G1 X  98.975 Y  32.216
G1 X  99.483 Y  31.708
G1 X  99.568 Y  31.369
G1 X  99.568 Y  31.157
G1 X  99.483 Y  30.819
G1 X  98.975 Y  30.311
G1 X  98.637 Y  30.226
G1 X  98.425 Y  30.226
G1 X  98.086 Y  30.311
G1 X  97.578 Y  30.819
F150
G1 Z   2.000
M9 M5

(* SHAPE Nr: 65 *)
G0 X 107.527 Y  30.438
M3 M8
G0 Z   2.000 
F150
G1 Z  -0.125
F70
G1 X 107.442 Y  30.776
G1 X 107.442 Y  30.988
G1 X 107.527 Y  31.327
G1 X 108.035 Y  31.835
G1 X 108.289 Y  31.919
G1 X 108.289 Y  31.919
G1 X 108.585 Y  31.919
G1 X 108.924 Y  31.835
G1 X 109.432 Y  31.327
G1 X 109.516 Y  30.988
G1 X 109.516 Y  30.776
G1 X 109.432 Y  30.438
G1 X 108.924 Y  29.930
G1 X 108.585 Y  29.845
G1 X 108.373 Y  29.845
G1 X 108.035 Y  29.930
G1 X 107.527 Y  30.438
F150
G1 Z   2.000
M9 M5

(* SHAPE Nr: 66 *)
G0 X  10.245 Y  29.295
M3 M8
G0 Z   2.000 
F150
G1 Z  -0.125
F70
G1 X  10.245 Y  31.708
G1 X  10.245 Y  31.708
G1 X  12.658 Y  31.708
G1 X  12.658 Y  29.295
G1 X  10.245 Y  29.295
F150
G1 Z   2.000
M9 M5

(* SHAPE Nr: 67 *)
G0 X   8.594 Y  29.379
M3 M8
G0 Z   2.000 
F150
G1 Z  -0.125
F70
G1 X   8.255 Y  29.549
G1 X   8.001 Y  29.760
G1 X   7.789 Y  30.184
G1 X   7.747 Y  30.607
G1 X   7.832 Y  30.946
G1 X   8.086 Y  31.327
G1 X   8.424 Y  31.538
G1 X   8.721 Y  31.665
G1 X   8.721 Y  31.665
G1 X   9.229 Y  31.623
G1 X   9.567 Y  31.454
G1 X   9.821 Y  31.242
G1 X  10.033 Y  30.819
G1 X  10.033 Y  30.184
G1 X   9.821 Y  29.760
G1 X   9.567 Y  29.549
G1 X   9.229 Y  29.379
G1 X   8.594 Y  29.379
F150
G1 Z   2.000
M9 M5

(* SHAPE Nr: 68 *)
G0 X 102.997 Y  29.760
M3 M8
G0 Z   2.000 
F150
G1 Z  -0.125
F70
G1 X 102.997 Y  31.623
G1 X 102.997 Y  31.623
G1 X 104.860 Y  31.623
G1 X 104.860 Y  29.760
G1 X 102.997 Y  29.760
F150
G1 Z   2.000
M9 M5

(* SHAPE Nr: 69 *)
G0 X  67.903 Y  29.295
M3 M8
G0 Z   2.000 
F150
G1 Z  -0.125
F70
G1 X  67.818 Y  29.633
G1 X  67.818 Y  29.845
G1 X  67.903 Y  30.184
G1 X  68.411 Y  30.692
G1 X  68.665 Y  30.776
G1 X  68.665 Y  30.776
G1 X  68.961 Y  30.776
G1 X  69.300 Y  30.692
G1 X  69.808 Y  30.184
G1 X  69.892 Y  29.845
G1 X  69.892 Y  29.633
G1 X  69.808 Y  29.295
G1 X  69.300 Y  28.787
G1 X  68.961 Y  28.702
G1 X  68.749 Y  28.702
G1 X  68.411 Y  28.787
G1 X  67.903 Y  29.295
F150
G1 Z   2.000
M9 M5

(* SHAPE Nr: 70 *)
G0 X  70.443 Y  29.295
M3 M8
G0 Z   2.000 
F150
G1 Z  -0.125
F70
G1 X  70.358 Y  29.633
G1 X  70.358 Y  29.845
G1 X  70.443 Y  30.184
G1 X  70.951 Y  30.692
G1 X  71.205 Y  30.776
G1 X  71.205 Y  30.776
G1 X  71.501 Y  30.776
G1 X  71.840 Y  30.692
G1 X  72.348 Y  30.184
G1 X  72.432 Y  29.845
G1 X  72.432 Y  29.633
G1 X  72.348 Y  29.295
G1 X  71.840 Y  28.787
G1 X  71.501 Y  28.702
G1 X  71.289 Y  28.702
G1 X  70.951 Y  28.787
G1 X  70.443 Y  29.295
F150
G1 Z   2.000
M9 M5

(* SHAPE Nr: 71 *)
G0 X  72.983 Y  29.295
M3 M8
G0 Z   2.000 
F150
G1 Z  -0.125
F70
G1 X  72.898 Y  29.633
G1 X  72.898 Y  29.845
G1 X  72.983 Y  30.184
G1 X  73.491 Y  30.692
G1 X  73.745 Y  30.776
G1 X  73.745 Y  30.776
G1 X  74.041 Y  30.776
G1 X  74.380 Y  30.692
G1 X  74.888 Y  30.184
G1 X  74.972 Y  29.845
G1 X  74.972 Y  29.633
G1 X  74.888 Y  29.295
G1 X  74.380 Y  28.787
G1 X  74.041 Y  28.702
G1 X  73.829 Y  28.702
G1 X  73.491 Y  28.787
G1 X  72.983 Y  29.295
F150
G1 Z   2.000
M9 M5

(* SHAPE Nr: 72 *)
G0 X  75.523 Y  29.295
M3 M8
G0 Z   2.000 
F150
G1 Z  -0.125
F70
G1 X  75.438 Y  29.633
G1 X  75.438 Y  29.845
G1 X  75.523 Y  30.184
G1 X  76.031 Y  30.692
G1 X  76.285 Y  30.776
G1 X  76.285 Y  30.776
G1 X  76.581 Y  30.776
G1 X  76.920 Y  30.692
G1 X  77.428 Y  30.184
G1 X  77.512 Y  29.845
G1 X  77.512 Y  29.633
G1 X  77.428 Y  29.295
G1 X  76.920 Y  28.787
G1 X  76.581 Y  28.702
G1 X  76.369 Y  28.702
G1 X  76.031 Y  28.787
G1 X  75.523 Y  29.295
F150
G1 Z   2.000
M9 M5

(* SHAPE Nr: 73 *)
G0 X  78.063 Y  29.295
M3 M8
G0 Z   2.000 
F150
G1 Z  -0.125
F70
G1 X  77.978 Y  29.633
G1 X  77.978 Y  29.845
G1 X  78.063 Y  30.184
G1 X  78.571 Y  30.692
G1 X  78.825 Y  30.776
G1 X  78.825 Y  30.776
G1 X  79.121 Y  30.776
G1 X  79.460 Y  30.692
G1 X  79.968 Y  30.184
G1 X  80.052 Y  29.845
G1 X  80.052 Y  29.633
G1 X  79.968 Y  29.295
G1 X  79.460 Y  28.787
G1 X  79.121 Y  28.702
G1 X  78.909 Y  28.702
G1 X  78.571 Y  28.787
G1 X  78.063 Y  29.295
F150
G1 Z   2.000
M9 M5

(* SHAPE Nr: 74 *)
G0 X  80.603 Y  29.295
M3 M8
G0 Z   2.000 
F150
G1 Z  -0.125
F70
G1 X  80.518 Y  29.633
G1 X  80.518 Y  29.845
G1 X  80.603 Y  30.184
G1 X  81.111 Y  30.692
G1 X  81.365 Y  30.776
G1 X  81.365 Y  30.776
G1 X  81.661 Y  30.776
G1 X  82.000 Y  30.692
G1 X  82.508 Y  30.184
G1 X  82.592 Y  29.845
G1 X  82.592 Y  29.633
G1 X  82.508 Y  29.295
G1 X  82.000 Y  28.787
G1 X  81.661 Y  28.702
G1 X  81.449 Y  28.702
G1 X  81.111 Y  28.787
G1 X  80.603 Y  29.295
F150
G1 Z   2.000
M9 M5

(* SHAPE Nr: 75 *)
G0 X  83.143 Y  29.295
M3 M8
G0 Z   2.000 
F150
G1 Z  -0.125
F70
G1 X  83.058 Y  29.633
G1 X  83.058 Y  29.845
G1 X  83.143 Y  30.184
G1 X  83.651 Y  30.692
G1 X  83.905 Y  30.776
G1 X  83.905 Y  30.776
G1 X  84.201 Y  30.776
G1 X  84.540 Y  30.692
G1 X  85.048 Y  30.184
G1 X  85.132 Y  29.845
G1 X  85.132 Y  29.633
G1 X  85.048 Y  29.295
G1 X  84.540 Y  28.787
G1 X  84.201 Y  28.702
G1 X  83.989 Y  28.702
G1 X  83.651 Y  28.787
G1 X  83.143 Y  29.295
F150
G1 Z   2.000
M9 M5

(* SHAPE Nr: 76 *)
G0 X  52.917 Y  28.914
M3 M8
G0 Z   2.000 
F150
G1 Z  -0.125
F70
G1 X  52.832 Y  29.252
G1 X  52.832 Y  29.464
G1 X  52.917 Y  29.803
G1 X  53.425 Y  30.311
G1 X  53.679 Y  30.395
G1 X  53.679 Y  30.395
G1 X  53.975 Y  30.395
G1 X  54.314 Y  30.311
G1 X  54.822 Y  29.803
G1 X  54.906 Y  29.464
G1 X  54.906 Y  29.252
G1 X  54.822 Y  28.914
G1 X  54.314 Y  28.406
G1 X  53.975 Y  28.321
G1 X  53.763 Y  28.321
G1 X  53.425 Y  28.406
G1 X  52.917 Y  28.914
F150
G1 Z   2.000
M9 M5

(* SHAPE Nr: 77 *)
G0 X  54.864 Y   9.567
M3 M8
G0 Z   2.000 
F150
G1 Z  -0.125
F70
G1 X  54.864 Y   9.779
G1 X  54.949 Y  10.118
G1 X  55.457 Y  10.626
G1 X  55.795 Y  10.710
G1 X  56.007 Y  10.710
G1 X  56.346 Y  10.626
G1 X  56.811 Y  10.160
G1 X  76.158 Y  10.118
G1 X  77.174 Y   9.144
G1 X  87.207 Y   9.144
G1 X  87.926 Y   9.821
G1 X  87.926 Y  17.145
G1 X  83.651 Y  21.378
G1 X  79.587 Y  21.421
G1 X  76.793 Y  24.172
G1 X  76.412 Y  24.130
G1 X  76.031 Y  24.215
G1 X  75.523 Y  24.723
G1 X  75.438 Y  25.061
G1 X  75.438 Y  25.273
G1 X  75.523 Y  25.612
G1 X  76.031 Y  26.120
G1 X  76.285 Y  26.204
G1 X  76.285 Y  26.204
G1 X  76.581 Y  26.204
G1 X  76.920 Y  26.120
G1 X  77.428 Y  25.612
G1 X  77.512 Y  25.231
G1 X  77.470 Y  24.807
G1 X  79.968 Y  22.352
G1 X  84.032 Y  22.310
G1 X  88.858 Y  17.484
G1 X  88.858 Y   9.483
G1 X  87.588 Y   8.213
G1 X  76.793 Y   8.213
G1 X  75.777 Y   9.186
G1 X  56.811 Y   9.186
G1 X  56.346 Y   8.721
G1 X  56.007 Y   8.636
G1 X  55.795 Y   8.636
G1 X  55.457 Y   8.721
G1 X  54.949 Y   9.229
G1 X  54.864 Y   9.567
F150
G1 Z   2.000
M9 M5

(* SHAPE Nr: 78 *)
G0 X  80.603 Y  24.723
M3 M8
G0 Z   2.000 
F150
G1 Z  -0.125
F70
G1 X  80.518 Y  25.061
G1 X  80.518 Y  25.273
G1 X  80.603 Y  25.612
G1 X  81.111 Y  26.120
G1 X  81.365 Y  26.204
G1 X  81.365 Y  26.204
G1 X  81.661 Y  26.204
G1 X  82.000 Y  26.120
G1 X  82.465 Y  25.654
G1 X 101.558 Y  25.654
G1 X 101.558 Y  26.035
G1 X 103.420 Y  26.035
G1 X 103.420 Y  24.172
G1 X 101.558 Y  24.172
G1 X 101.558 Y  24.680
G1 X  82.465 Y  24.680
G1 X  82.000 Y  24.215
G1 X  81.661 Y  24.130
G1 X  81.449 Y  24.130
G1 X  81.111 Y  24.215
G1 X  80.603 Y  24.723
F150
G1 Z   2.000
M9 M5

(* SHAPE Nr: 79 *)
G0 X  68.114 Y  24.596
M3 M8
G0 Z   2.000 
F150
G1 Z  -0.125
F70
G1 X  68.030 Y  24.934
G1 X  68.030 Y  25.146
G1 X  68.114 Y  25.485
G1 X  68.622 Y  25.993
G1 X  68.876 Y  26.077
G1 X  68.876 Y  26.077
G1 X  69.173 Y  26.077
G1 X  69.511 Y  25.993
G1 X  70.019 Y  25.485
G1 X  70.104 Y  25.146
G1 X  70.104 Y  24.934
G1 X  70.019 Y  24.596
G1 X  69.511 Y  24.088
G1 X  69.173 Y  24.003
G1 X  68.961 Y  24.003
G1 X  68.622 Y  24.088
G1 X  68.114 Y  24.596
F150
G1 Z   2.000
M9 M5

(* SHAPE Nr: 80 *)
G0 X  55.711 Y  24.299
M3 M8
G0 Z   2.000 
F150
G1 Z  -0.125
F70
G1 X  55.626 Y  24.638
G1 X  55.626 Y  24.850
G1 X  55.711 Y  25.188
G1 X  56.219 Y  25.696
G1 X  56.473 Y  25.781
G1 X  56.473 Y  25.781
G1 X  56.769 Y  25.781
G1 X  57.108 Y  25.696
G1 X  57.616 Y  25.188
G1 X  57.700 Y  24.850
G1 X  57.700 Y  24.638
G1 X  57.616 Y  24.299
G1 X  57.108 Y  23.791
G1 X  56.769 Y  23.707
G1 X  56.557 Y  23.707
G1 X  56.219 Y  23.791
G1 X  55.711 Y  24.299
F150
G1 Z   2.000
M9 M5

(* SHAPE Nr: 81 *)
G0 X  63.331 Y  24.299
M3 M8
G0 Z   2.000 
F150
G1 Z  -0.125
F70
G1 X  63.246 Y  24.638
G1 X  63.246 Y  24.850
G1 X  63.331 Y  25.188
G1 X  63.839 Y  25.696
G1 X  64.093 Y  25.781
G1 X  64.093 Y  25.781
G1 X  64.389 Y  25.781
G1 X  64.728 Y  25.696
G1 X  65.236 Y  25.188
G1 X  65.320 Y  24.850
G1 X  65.320 Y  24.638
G1 X  65.236 Y  24.299
G1 X  64.728 Y  23.791
G1 X  64.389 Y  23.707
G1 X  64.177 Y  23.707
G1 X  63.839 Y  23.791
G1 X  63.331 Y  24.299
F150
G1 Z   2.000
M9 M5

(* SHAPE Nr: 82 *)
G0 X 107.442 Y  23.156
M3 M8
G0 Z   2.000 
F150
G1 Z  -0.125
F70
G1 X 107.442 Y  23.368
G1 X 107.527 Y  23.707
G1 X 108.035 Y  24.215
G1 X 108.289 Y  24.299
G1 X 108.289 Y  24.299
G1 X 108.585 Y  24.299
G1 X 108.924 Y  24.215
G1 X 109.432 Y  23.707
G1 X 109.516 Y  23.368
G1 X 109.516 Y  23.156
G1 X 109.432 Y  22.818
G1 X 108.924 Y  22.310
G1 X 108.585 Y  22.225
G1 X 108.373 Y  22.225
G1 X 108.035 Y  22.310
G1 X 107.527 Y  22.818
G1 X 107.442 Y  23.156
F150
G1 Z   2.000
M9 M5

(* SHAPE Nr: 83 *)
G0 X  67.987 Y  21.421
M3 M8
G0 Z   2.000 
F150
G1 Z  -0.125
F70
G1 X  67.987 Y  23.537
G1 X  67.987 Y  23.537
G1 X  70.104 Y  23.537
G1 X  70.104 Y  21.421
G1 X  67.987 Y  21.421
F150
G1 Z   2.000
M9 M5

(* SHAPE Nr: 84 *)
G0 X   4.953 Y  21.124
M3 M8
G0 Z   2.000 
F150
G1 Z  -0.125
F70
G1 X   4.614 Y  21.209
G1 X   4.106 Y  21.717
G1 X   4.022 Y  22.056
G1 X   4.022 Y  22.267
G1 X   4.106 Y  22.606
G1 X   4.614 Y  23.114
G1 X   4.868 Y  23.199
G1 X   4.868 Y  23.199
G1 X   5.165 Y  23.199
G1 X   5.503 Y  23.114
G1 X   6.011 Y  22.606
G1 X   6.096 Y  22.267
G1 X   6.096 Y  22.056
G1 X   6.011 Y  21.717
G1 X   5.503 Y  21.209
G1 X   5.165 Y  21.124
G1 X   4.953 Y  21.124
F150
G1 Z   2.000
M9 M5

(* SHAPE Nr: 85 *)
G0 X   9.440 Y  21.040
M3 M8
G0 Z   2.000 
F150
G1 Z  -0.125
F70
G1 X   8.932 Y  21.548
G1 X   8.848 Y  21.886
G1 X   8.848 Y  22.098
G1 X   8.932 Y  22.437
G1 X   9.440 Y  22.945
G1 X   9.694 Y  23.029
G1 X   9.694 Y  23.029
G1 X   9.991 Y  23.029
G1 X  10.329 Y  22.945
G1 X  10.837 Y  22.437
G1 X  10.922 Y  22.098
G1 X  10.922 Y  21.886
G1 X  10.837 Y  21.548
G1 X  10.329 Y  21.040
G1 X   9.991 Y  20.955
G1 X   9.779 Y  20.955
G1 X   9.440 Y  21.040
F150
G1 Z   2.000
M9 M5

(* SHAPE Nr: 86 *)
G0 X  94.234 Y  19.431
M3 M8
G0 Z   2.000 
F150
G1 Z  -0.125
F70
G1 X  94.234 Y  21.548
G1 X  94.234 Y  21.548
G1 X  96.351 Y  21.548
G1 X  96.351 Y  19.431
G1 X  94.234 Y  19.431
F150
G1 Z   2.000
M9 M5

(* SHAPE Nr: 87 *)
G0 X  96.816 Y  20.405
M3 M8
G0 Z   2.000 
F150
G1 Z  -0.125
F70
G1 X  96.816 Y  20.616
G1 X  96.901 Y  20.955
G1 X  97.409 Y  21.463
G1 X  97.663 Y  21.548
G1 X  97.663 Y  21.548
G1 X  97.959 Y  21.548
G1 X  98.298 Y  21.463
G1 X  98.806 Y  20.955
G1 X  98.891 Y  20.616
G1 X  98.891 Y  20.405
G1 X  98.806 Y  20.066
G1 X  98.298 Y  19.558
G1 X  97.959 Y  19.473
G1 X  97.748 Y  19.473
G1 X  97.409 Y  19.558
G1 X  96.901 Y  20.066
G1 X  96.816 Y  20.405
F150
G1 Z   2.000
M9 M5

(* SHAPE Nr: 88 *)
G0 X  80.687 Y  18.246
M3 M8
G0 Z   2.000 
F150
G1 Z  -0.125
F70
G1 X  80.687 Y  18.457
G1 X  80.772 Y  18.796
G1 X  81.280 Y  19.304
G1 X  81.534 Y  19.389
G1 X  81.534 Y  19.389
G1 X  81.830 Y  19.389
G1 X  82.169 Y  19.304
G1 X  82.677 Y  18.796
G1 X  82.762 Y  18.457
G1 X  82.762 Y  18.246
G1 X  82.677 Y  17.907
G1 X  82.169 Y  17.399
G1 X  81.830 Y  17.314
G1 X  81.619 Y  17.314
G1 X  81.280 Y  17.399
G1 X  80.772 Y  17.907
G1 X  80.687 Y  18.246
F150
G1 Z   2.000
M9 M5

(* SHAPE Nr: 89 *)
G0 X  34.629 Y   9.737
M3 M8
G0 Z   2.000 
F150
G1 Z  -0.125
F70
G1 X  34.544 Y  10.075
G1 X  34.544 Y  10.287
G1 X  34.629 Y  10.626
G1 X  35.094 Y  11.091
G1 X  35.137 Y  15.325
G1 X  37.465 Y  17.695
G1 X  37.423 Y  18.076
G1 X  37.507 Y  18.457
G1 X  38.015 Y  18.965
G1 X  38.269 Y  19.050
G1 X  38.269 Y  19.050
G1 X  38.566 Y  19.050
G1 X  38.904 Y  18.965
G1 X  39.412 Y  18.457
G1 X  39.497 Y  18.119
G1 X  39.497 Y  17.907
G1 X  39.412 Y  17.568
G1 X  38.904 Y  17.060
G1 X  38.523 Y  16.976
G1 X  38.142 Y  17.018
G1 X  36.068 Y  14.986
G1 X  36.068 Y  11.091
G1 X  36.534 Y  10.626
G1 X  36.618 Y  10.287
G1 X  36.618 Y  10.075
G1 X  36.534 Y   9.737
G1 X  36.026 Y   9.229
G1 X  35.687 Y   9.144
G1 X  35.475 Y   9.144
G1 X  35.137 Y   9.229
G1 X  34.629 Y   9.737
F150
G1 Z   2.000
M9 M5

(* SHAPE Nr: 90 *)
G0 X  45.127 Y  17.568
M3 M8
G0 Z   2.000 
F150
G1 Z  -0.125
F70
G1 X  45.043 Y  17.907
G1 X  45.043 Y  18.119
G1 X  45.127 Y  18.457
G1 X  45.635 Y  18.965
G1 X  45.889 Y  19.050
G1 X  45.889 Y  19.050
G1 X  46.186 Y  19.050
G1 X  46.524 Y  18.965
G1 X  46.990 Y  18.500
G1 X  64.516 Y  18.500
G1 X  64.516 Y  18.754
G1 X  66.379 Y  18.754
G1 X  66.379 Y  16.891
G1 X  64.516 Y  16.891
G1 X  64.516 Y  17.526
G1 X  63.712 Y  17.526
G1 X  63.712 Y  12.954
G1 X  83.185 Y  12.954
G1 X  83.651 Y  13.420
G1 X  83.989 Y  13.504
G1 X  84.201 Y  13.504
G1 X  84.540 Y  13.420
G1 X  85.048 Y  12.912
G1 X  85.132 Y  12.573
G1 X  85.132 Y  12.361
G1 X  85.048 Y  12.023
G1 X  84.540 Y  11.515
G1 X  84.201 Y  11.430
G1 X  83.989 Y  11.430
G1 X  83.651 Y  11.515
G1 X  83.185 Y  11.980
G1 X  63.331 Y  12.023
G1 X  62.780 Y  12.573
G1 X  62.738 Y  17.526
G1 X  46.990 Y  17.526
G1 X  46.524 Y  17.060
G1 X  46.186 Y  16.976
G1 X  45.974 Y  16.976
G1 X  45.635 Y  17.060
G1 X  45.127 Y  17.568
F150
G1 Z   2.000
M9 M5

(* SHAPE Nr: 91 *)
G0 X  72.009 Y  17.738
M3 M8
G0 Z   2.000 
F150
G1 Z  -0.125
F70
G1 X  72.009 Y  17.949
G1 X  72.094 Y  18.288
G1 X  72.602 Y  18.796
G1 X  72.856 Y  18.881
G1 X  72.856 Y  18.881
G1 X  73.152 Y  18.881
G1 X  73.491 Y  18.796
G1 X  73.999 Y  18.288
G1 X  74.083 Y  17.949
G1 X  74.083 Y  17.738
G1 X  73.999 Y  17.399
G1 X  73.491 Y  16.891
G1 X  73.152 Y  16.806
G1 X  72.940 Y  16.806
G1 X  72.602 Y  16.891
G1 X  72.094 Y  17.399
G1 X  72.009 Y  17.738
F150
G1 Z   2.000
M9 M5

(* SHAPE Nr: 92 *)
G0 X 101.473 Y  17.399
M3 M8
G0 Z   2.000 
F150
G1 Z  -0.125
F70
G1 X 101.473 Y  17.611
G1 X 101.558 Y  17.949
G1 X 102.066 Y  18.457
G1 X 102.320 Y  18.542
G1 X 102.320 Y  18.542
G1 X 102.616 Y  18.542
G1 X 102.955 Y  18.457
G1 X 103.463 Y  17.949
G1 X 103.547 Y  17.611
G1 X 103.547 Y  17.399
G1 X 103.463 Y  17.060
G1 X 102.955 Y  16.552
G1 X 102.616 Y  16.468
G1 X 102.404 Y  16.468
G1 X 102.066 Y  16.552
G1 X 101.558 Y  17.060
G1 X 101.473 Y  17.399
F150
G1 Z   2.000
M9 M5

(* SHAPE Nr: 93 *)
G0 X  24.765 Y  15.621
M3 M8
G0 Z   2.000 
F150
G1 Z  -0.125
F70
G1 X  24.596 Y  16.002
G1 X  24.553 Y  16.425
G1 X  24.680 Y  16.891
G1 X  24.934 Y  17.187
G1 X  25.188 Y  17.399
G1 X  25.612 Y  17.568
G1 X  25.612 Y  17.568
G1 X  26.120 Y  17.526
G1 X  26.501 Y  17.357
G1 X  26.839 Y  17.018
G1 X  27.009 Y  16.637
G1 X  27.009 Y  16.002
G1 X  26.839 Y  15.621
G1 X  26.501 Y  15.282
G1 X  26.120 Y  15.113
G1 X  25.485 Y  15.113
G1 X  25.104 Y  15.282
G1 X  24.765 Y  15.621
F150
G1 Z   2.000
M9 M5

(* SHAPE Nr: 94 *)
M3 M8
G0 Z   2.000 
F150
G1 Z  -0.125
F70
G1 X  32.173 Y  17.568
G1 X  32.173 Y  17.568
G1 X  34.671 Y  17.568
F150
G1 Z   2.000
M9 M5

(* SHAPE Nr: 95 *)
G0 X  13.589 Y  13.208
M3 M8
G0 Z   2.000 
F150
G1 Z  -0.125
F70
G1 X  13.589 Y  15.621
G1 X  13.589 Y  15.621
G1 X  16.002 Y  15.621
G1 X  16.002 Y  13.208
G1 X  13.589 Y  13.208
F150
G1 Z   2.000
M9 M5

(* SHAPE Nr: 96 *)
G0 X  16.256 Y  13.843
M3 M8
G0 Z   2.000 
F150
G1 Z  -0.125
F70
G1 X  16.129 Y  14.266
G1 X  16.129 Y  14.563
G1 X  16.256 Y  14.986
G1 X  16.764 Y  15.494
G1 X  17.145 Y  15.621
G1 X  17.145 Y  15.621
G1 X  17.484 Y  15.621
G1 X  17.907 Y  15.494
G1 X  18.415 Y  14.986
G1 X  18.542 Y  14.563
G1 X  18.542 Y  14.266
G1 X  18.415 Y  13.843
G1 X  17.907 Y  13.335
G1 X  17.484 Y  13.208
G1 X  17.187 Y  13.208
G1 X  16.764 Y  13.335
G1 X  16.256 Y  13.843
F150
G1 Z   2.000
M9 M5

(* SHAPE Nr: 97 *)
G0 X  18.796 Y  13.843
M3 M8
G0 Z   2.000 
F150
G1 Z  -0.125
F70
G1 X  18.669 Y  14.266
G1 X  18.669 Y  14.563
G1 X  18.796 Y  14.986
G1 X  19.304 Y  15.494
G1 X  19.685 Y  15.621
G1 X  19.685 Y  15.621
G1 X  20.024 Y  15.621
G1 X  20.447 Y  15.494
G1 X  20.955 Y  14.986
G1 X  21.082 Y  14.563
G1 X  21.082 Y  14.266
G1 X  20.955 Y  13.843
G1 X  20.447 Y  13.335
G1 X  20.024 Y  13.208
G1 X  19.727 Y  13.208
G1 X  19.304 Y  13.335
G1 X  18.796 Y  13.843
F150
G1 Z   2.000
M9 M5

(* SHAPE Nr: 98 *)
G0 X   4.614 Y  13.589
M3 M8
G0 Z   2.000 
F150
G1 Z  -0.125
F70
G1 X   4.106 Y  14.097
G1 X   4.022 Y  14.436
G1 X   4.022 Y  14.647
G1 X   4.106 Y  14.986
G1 X   4.614 Y  15.494
G1 X   4.868 Y  15.579
G1 X   4.868 Y  15.579
G1 X   5.165 Y  15.579
G1 X   5.503 Y  15.494
G1 X   6.011 Y  14.986
G1 X   6.096 Y  14.647
G1 X   6.096 Y  14.436
G1 X   6.011 Y  14.097
G1 X   5.503 Y  13.589
G1 X   5.165 Y  13.504
G1 X   4.953 Y  13.504
G1 X   4.614 Y  13.589
F150
G1 Z   2.000
M9 M5

(* SHAPE Nr: 99 *)
G0 X   9.440 Y  13.420
M3 M8
G0 Z   2.000 
F150
G1 Z  -0.125
F70
G1 X   8.932 Y  13.928
G1 X   8.848 Y  14.266
G1 X   8.848 Y  14.478
G1 X   8.932 Y  14.817
G1 X   9.440 Y  15.325
G1 X   9.694 Y  15.409
G1 X   9.694 Y  15.409
G1 X   9.991 Y  15.409
G1 X  10.329 Y  15.325
G1 X  10.837 Y  14.817
G1 X  10.922 Y  14.478
G1 X  10.922 Y  14.266
G1 X  10.837 Y  13.928
G1 X  10.329 Y  13.420
G1 X   9.991 Y  13.335
G1 X   9.779 Y  13.335
G1 X   9.440 Y  13.420
F150
G1 Z   2.000
M9 M5

(* SHAPE Nr: 100 *)
G0 X  64.347 Y  13.208
M3 M8
G0 Z   2.000 
F150
G1 Z  -0.125
F70
G1 X  66.209 Y  13.208
G1 X  64.347 Y  13.208
F150
G1 Z   2.000
M9 M5

(* SHAPE Nr: 101 *)
G0 X  37.761 Y  12.954
M3 M8
G0 Z   2.000 
F150
G1 Z  -0.125
F70
G1 X  37.677 Y  13.293
G1 X  37.677 Y  13.504
G1 X  37.761 Y  13.843
G1 X  38.269 Y  14.351
G1 X  38.523 Y  14.436
G1 X  38.523 Y  14.436
G1 X  38.820 Y  14.436
G1 X  39.158 Y  14.351
G1 X  39.666 Y  13.843
G1 X  39.751 Y  13.504
G1 X  39.751 Y  13.293
G1 X  39.666 Y  12.954
G1 X  39.158 Y  12.446
G1 X  38.820 Y  12.361
G1 X  38.608 Y  12.361
G1 X  38.269 Y  12.446
G1 X  37.761 Y  12.954
F150
G1 Z   2.000
M9 M5

(* SHAPE Nr: 102 *)
G0 X  57.489 Y  12.150
M3 M8
G0 Z   2.000 
F150
G1 Z  -0.125
F70
G1 X  57.489 Y  14.266
G1 X  57.489 Y  14.266
G1 X  59.605 Y  14.266
G1 X  59.605 Y  12.150
G1 X  57.489 Y  12.150
F150
G1 Z   2.000
M9 M5

(* SHAPE Nr: 103 *)
G0 X  42.333 Y  12.742
M3 M8
G0 Z   2.000 
F150
G1 Z  -0.125
F70
G1 X  42.249 Y  13.081
G1 X  42.249 Y  13.293
G1 X  42.333 Y  13.631
G1 X  42.841 Y  14.139
G1 X  43.095 Y  14.224
G1 X  43.095 Y  14.224
G1 X  43.392 Y  14.224
G1 X  43.730 Y  14.139
G1 X  44.238 Y  13.631
G1 X  44.323 Y  13.293
G1 X  44.323 Y  13.081
G1 X  44.238 Y  12.742
G1 X  43.730 Y  12.234
G1 X  43.392 Y  12.150
G1 X  43.180 Y  12.150
G1 X  42.841 Y  12.234
G1 X  42.333 Y  12.742
F150
G1 Z   2.000
M9 M5

(* SHAPE Nr: 104 *)
G0 X  44.873 Y  12.742
M3 M8
G0 Z   2.000 
F150
G1 Z  -0.125
F70
G1 X  44.789 Y  13.081
G1 X  44.789 Y  13.293
G1 X  44.873 Y  13.631
G1 X  45.381 Y  14.139
G1 X  45.635 Y  14.224
G1 X  45.635 Y  14.224
G1 X  45.932 Y  14.224
G1 X  46.270 Y  14.139
G1 X  46.778 Y  13.631
G1 X  46.863 Y  13.293
G1 X  46.863 Y  13.081
G1 X  46.778 Y  12.742
G1 X  46.270 Y  12.234
G1 X  45.932 Y  12.150
G1 X  45.720 Y  12.150
G1 X  45.381 Y  12.234
G1 X  44.873 Y  12.742
F150
G1 Z   2.000
M9 M5

(* SHAPE Nr: 105 *)
G0 X  47.413 Y  12.742
M3 M8
G0 Z   2.000 
F150
G1 Z  -0.125
F70
G1 X  47.329 Y  13.081
G1 X  47.329 Y  13.293
G1 X  47.413 Y  13.631
G1 X  47.921 Y  14.139
G1 X  48.175 Y  14.224
G1 X  48.175 Y  14.224
G1 X  48.472 Y  14.224
G1 X  48.810 Y  14.139
G1 X  49.318 Y  13.631
G1 X  49.403 Y  13.293
G1 X  49.403 Y  13.081
G1 X  49.318 Y  12.742
G1 X  48.810 Y  12.234
G1 X  48.472 Y  12.150
G1 X  48.260 Y  12.150
G1 X  47.921 Y  12.234
G1 X  47.413 Y  12.742
F150
G1 Z   2.000
M9 M5

(* SHAPE Nr: 106 *)
G0 X  49.953 Y  12.742
M3 M8
G0 Z   2.000 
F150
G1 Z  -0.125
F70
G1 X  49.869 Y  13.081
G1 X  49.869 Y  13.293
G1 X  49.953 Y  13.631
G1 X  50.461 Y  14.139
G1 X  50.715 Y  14.224
G1 X  50.715 Y  14.224
G1 X  51.012 Y  14.224
G1 X  51.350 Y  14.139
G1 X  51.858 Y  13.631
G1 X  51.943 Y  13.293
G1 X  51.943 Y  13.081
G1 X  51.858 Y  12.742
G1 X  51.350 Y  12.234
G1 X  51.012 Y  12.150
G1 X  50.800 Y  12.150
G1 X  50.461 Y  12.234
G1 X  49.953 Y  12.742
F150
G1 Z   2.000
M9 M5

(* SHAPE Nr: 107 *)
G0 X  52.409 Y  13.081
M3 M8
G0 Z   2.000 
F150
G1 Z  -0.125
F70
G1 X  52.409 Y  13.293
G1 X  52.493 Y  13.631
G1 X  53.001 Y  14.139
G1 X  53.255 Y  14.224
G1 X  53.255 Y  14.224
G1 X  53.552 Y  14.224
G1 X  53.890 Y  14.139
G1 X  54.398 Y  13.631
G1 X  54.483 Y  13.293
G1 X  54.483 Y  13.081
G1 X  54.398 Y  12.742
G1 X  53.890 Y  12.234
G1 X  53.552 Y  12.150
G1 X  53.340 Y  12.150
G1 X  53.001 Y  12.234
G1 X  52.493 Y  12.742
G1 X  52.409 Y  13.081
F150
G1 Z   2.000
M9 M5

(* SHAPE Nr: 108 *)
G0 X  54.949 Y  13.081
M3 M8
G0 Z   2.000 
F150
G1 Z  -0.125
F70
G1 X  54.949 Y  13.293
G1 X  55.033 Y  13.631
G1 X  55.541 Y  14.139
G1 X  55.795 Y  14.224
G1 X  55.795 Y  14.224
G1 X  56.092 Y  14.224
G1 X  56.430 Y  14.139
G1 X  56.938 Y  13.631
G1 X  57.023 Y  13.293
G1 X  57.023 Y  13.081
G1 X  56.938 Y  12.742
G1 X  56.430 Y  12.234
G1 X  56.092 Y  12.150
G1 X  55.880 Y  12.150
G1 X  55.541 Y  12.234
G1 X  55.033 Y  12.742
G1 X  54.949 Y  13.081
F150
G1 Z   2.000
M9 M5

(* SHAPE Nr: 109 *)
G0 X  37.634 Y   9.779
M3 M8
G0 Z   2.000 
F150
G1 Z  -0.125
F70
G1 X  37.634 Y  11.896
G1 X  37.634 Y  11.896
G1 X  39.751 Y  11.896
G1 X  39.751 Y   9.779
G1 X  37.634 Y   9.779
F150
G1 Z   2.000
M9 M5

(* SHAPE Nr: 110 *)
G0 X  80.687 Y  10.626
M3 M8
G0 Z   2.000 
F150
G1 Z  -0.125
F70
G1 X  80.687 Y  10.837
G1 X  80.772 Y  11.176
G1 X  81.280 Y  11.684
G1 X  81.534 Y  11.769
G1 X  81.534 Y  11.769
G1 X  81.830 Y  11.769
G1 X  82.169 Y  11.684
G1 X  82.677 Y  11.176
G1 X  82.762 Y  10.837
G1 X  82.762 Y  10.626
G1 X  82.677 Y  10.287
G1 X  82.169 Y   9.779
G1 X  81.830 Y   9.694
G1 X  81.619 Y   9.694
G1 X  81.280 Y   9.779
G1 X  80.772 Y  10.287
G1 X  80.687 Y  10.626
F150
G1 Z   2.000
M9 M5

(* SHAPE Nr: 111 *)
G0 X  49.022 Y   9.567
M3 M8
G0 Z   2.000 
F150
G1 Z  -0.125
F70
G1 X  49.022 Y   9.779
G1 X  49.107 Y  10.118
G1 X  49.615 Y  10.626
G1 X  49.869 Y  10.710
G1 X  49.869 Y  10.710
G1 X  50.165 Y  10.710
G1 X  50.504 Y  10.626
G1 X  51.012 Y  10.118
G1 X  51.096 Y   9.737
G1 X  51.054 Y   9.313
G1 X  52.028 Y   8.382
G1 X  62.188 Y   8.340
G1 X  63.542 Y   7.027
G1 X  64.389 Y   7.027
G1 X  64.855 Y   7.493
G1 X  65.193 Y   7.578
G1 X  65.405 Y   7.578
G1 X  65.744 Y   7.493
G1 X  66.252 Y   6.985
G1 X  66.336 Y   6.646
G1 X  66.336 Y   6.435
G1 X  66.252 Y   6.096
G1 X  65.744 Y   5.588
G1 X  65.405 Y   5.503
G1 X  65.193 Y   5.503
G1 X  64.855 Y   5.588
G1 X  64.389 Y   6.054
G1 X  63.161 Y   6.096
G1 X  61.807 Y   7.408
G1 X  51.647 Y   7.451
G1 X  50.377 Y   8.678
G1 X  49.996 Y   8.636
G1 X  49.615 Y   8.721
G1 X  49.107 Y   9.229
G1 X  49.022 Y   9.567
F150
G1 Z   2.000
M9 M5

(* SHAPE Nr: 112 *)
G0 X  26.797 Y   8.763
M3 M8
G0 Z   2.000 
F150
G1 Z  -0.125
F70
G1 X  26.712 Y   9.102
G1 X  26.712 Y   9.313
G1 X  26.797 Y   9.652
G1 X  27.305 Y  10.160
G1 X  27.559 Y  10.245
G1 X  27.559 Y  10.245
G1 X  27.855 Y  10.245
G1 X  28.194 Y  10.160
G1 X  28.702 Y   9.652
G1 X  28.787 Y   9.313
G1 X  28.787 Y   9.102
G1 X  28.702 Y   8.763
G1 X  28.194 Y   8.255
G1 X  27.855 Y   8.170
G1 X  27.644 Y   8.170
G1 X  27.305 Y   8.255
G1 X  26.797 Y   8.763
F150
G1 Z   2.000
M9 M5

(* SHAPE Nr: 113 *)
G0 X   3.260 Y   8.213
M3 M8
G0 Z   2.000 
F150
G1 Z  -0.125
F70
G1 X   2.752 Y   8.721
G1 X   2.667 Y   9.059
G1 X   2.667 Y   9.271
G1 X   2.752 Y   9.610
G1 X   3.260 Y  10.118
G1 X   3.514 Y  10.202
G1 X   3.514 Y  10.202
G1 X   3.810 Y  10.202
G1 X   4.149 Y  10.118
G1 X   4.657 Y   9.610
G1 X   4.741 Y   9.271
G1 X   4.741 Y   9.059
G1 X   4.657 Y   8.721
G1 X   4.149 Y   8.213
G1 X   3.810 Y   8.128
G1 X   3.598 Y   8.128
G1 X   3.260 Y   8.213
F150
G1 Z   2.000
M9 M5

(* SHAPE Nr: 114 *)
G0 X  10.372 Y   8.721
M3 M8
G0 Z   2.000 
F150
G1 Z  -0.125
F70
G1 X  10.287 Y   9.059
G1 X  10.287 Y   9.271
G1 X  10.372 Y   9.610
G1 X  10.880 Y  10.118
G1 X  11.134 Y  10.202
G1 X  11.134 Y  10.202
G1 X  11.430 Y  10.202
G1 X  11.769 Y  10.118
G1 X  12.277 Y   9.610
G1 X  12.361 Y   9.271
G1 X  12.361 Y   9.059
G1 X  12.277 Y   8.721
G1 X  11.769 Y   8.213
G1 X  11.430 Y   8.128
G1 X  11.218 Y   8.128
G1 X  10.880 Y   8.213
G1 X  10.372 Y   8.721
F150
G1 Z   2.000
M9 M5

(* SHAPE Nr: 115 *)
G0 X  19.177 Y   8.297
M3 M8
G0 Z   2.000 
F150
G1 Z  -0.125
F70
G1 X  19.177 Y  10.160
G1 X  19.177 Y  10.160
G1 X  21.040 Y  10.160
G1 X  21.040 Y   8.297
G1 X  19.177 Y   8.297
F150
G1 Z   2.000
M9 M5

(* SHAPE Nr: 116 *)
G0 X  42.249 Y   5.461
M3 M8
G0 Z   2.000 
F150
G1 Z  -0.125
F70
G1 X  42.249 Y   5.673
G1 X  42.333 Y   6.011
G1 X  42.841 Y   6.519
G1 X  43.095 Y   6.604
G1 X  43.095 Y   6.604
G1 X  43.392 Y   6.604
G1 X  43.730 Y   6.519
G1 X  44.238 Y   6.011
G1 X  44.323 Y   5.673
G1 X  44.323 Y   5.461
G1 X  44.238 Y   5.122
G1 X  43.730 Y   4.614
G1 X  43.392 Y   4.530
G1 X  43.180 Y   4.530
G1 X  42.841 Y   4.614
G1 X  42.333 Y   5.122
G1 X  42.249 Y   5.461
F150
G1 Z   2.000
M9 M5

(* SHAPE Nr: 117 *)
G0 X  44.789 Y   5.461
M3 M8
G0 Z   2.000 
F150
G1 Z  -0.125
F70
G1 X  44.789 Y   5.673
G1 X  44.873 Y   6.011
G1 X  45.381 Y   6.519
G1 X  45.635 Y   6.604
G1 X  45.635 Y   6.604
G1 X  45.932 Y   6.604
G1 X  46.270 Y   6.519
G1 X  46.778 Y   6.011
G1 X  46.863 Y   5.673
G1 X  46.863 Y   5.461
G1 X  46.778 Y   5.122
G1 X  46.270 Y   4.614
G1 X  45.932 Y   4.530
G1 X  45.720 Y   4.530
G1 X  45.381 Y   4.614
G1 X  44.873 Y   5.122
G1 X  44.789 Y   5.461
F150
G1 Z   2.000
M9 M5

(* SHAPE Nr: 118 *)
G0 X  47.329 Y   5.461
M3 M8
G0 Z   2.000 
F150
G1 Z  -0.125
F70
G1 X  47.329 Y   5.673
G1 X  47.413 Y   6.011
G1 X  47.921 Y   6.519
G1 X  48.175 Y   6.604
G1 X  48.175 Y   6.604
G1 X  48.472 Y   6.604
G1 X  48.810 Y   6.519
G1 X  49.318 Y   6.011
G1 X  49.403 Y   5.673
G1 X  49.403 Y   5.461
G1 X  49.318 Y   5.122
G1 X  48.810 Y   4.614
G1 X  48.472 Y   4.530
G1 X  48.260 Y   4.530
G1 X  47.921 Y   4.614
G1 X  47.413 Y   5.122
G1 X  47.329 Y   5.461
F150
G1 Z   2.000
M9 M5

(* SHAPE Nr: 119 *)
G0 X  49.869 Y   5.461
M3 M8
G0 Z   2.000 
F150
G1 Z  -0.125
F70
G1 X  49.869 Y   5.673
G1 X  49.953 Y   6.011
G1 X  50.461 Y   6.519
G1 X  50.715 Y   6.604
G1 X  50.715 Y   6.604
G1 X  51.012 Y   6.604
G1 X  51.350 Y   6.519
G1 X  51.858 Y   6.011
G1 X  51.943 Y   5.673
G1 X  51.943 Y   5.461
G1 X  51.858 Y   5.122
G1 X  51.350 Y   4.614
G1 X  51.012 Y   4.530
G1 X  50.800 Y   4.530
G1 X  50.461 Y   4.614
G1 X  49.953 Y   5.122
G1 X  49.869 Y   5.461
F150
G1 Z   2.000
M9 M5

(* SHAPE Nr: 120 *)
G0 X  52.409 Y   5.461
M3 M8
G0 Z   2.000 
F150
G1 Z  -0.125
F70
G1 X  52.409 Y   5.673
G1 X  52.493 Y   6.011
G1 X  53.001 Y   6.519
G1 X  53.255 Y   6.604
G1 X  53.255 Y   6.604
G1 X  53.552 Y   6.604
G1 X  53.890 Y   6.519
G1 X  54.398 Y   6.011
G1 X  54.483 Y   5.673
G1 X  54.483 Y   5.461
G1 X  54.398 Y   5.122
G1 X  53.890 Y   4.614
G1 X  53.552 Y   4.530
G1 X  53.340 Y   4.530
G1 X  53.001 Y   4.614
G1 X  52.493 Y   5.122
G1 X  52.409 Y   5.461
F150
G1 Z   2.000
M9 M5

(* SHAPE Nr: 121 *)
G0 X  54.949 Y   5.461
M3 M8
G0 Z   2.000 
F150
G1 Z  -0.125
F70
G1 X  54.949 Y   5.673
G1 X  55.033 Y   6.011
G1 X  55.541 Y   6.519
G1 X  55.795 Y   6.604
G1 X  55.795 Y   6.604
G1 X  56.092 Y   6.604
G1 X  56.430 Y   6.519
G1 X  56.938 Y   6.011
G1 X  57.023 Y   5.673
G1 X  57.023 Y   5.461
G1 X  56.938 Y   5.122
G1 X  56.430 Y   4.614
G1 X  56.092 Y   4.530
G1 X  55.880 Y   4.530
G1 X  55.541 Y   4.614
G1 X  55.033 Y   5.122
G1 X  54.949 Y   5.461
F150
G1 Z   2.000
M9 M5

(* SHAPE Nr: 122 *)
G0 X  57.489 Y   5.461
M3 M8
G0 Z   2.000 
F150
G1 Z  -0.125
F70
G1 X  57.489 Y   5.673
G1 X  57.573 Y   6.011
G1 X  58.081 Y   6.519
G1 X  58.335 Y   6.604
G1 X  58.335 Y   6.604
G1 X  58.632 Y   6.604
G1 X  58.970 Y   6.519
G1 X  59.478 Y   6.011
G1 X  59.563 Y   5.673
G1 X  59.563 Y   5.461
G1 X  59.478 Y   5.122
G1 X  58.970 Y   4.614
G1 X  58.632 Y   4.530
G1 X  58.420 Y   4.530
G1 X  58.081 Y   4.614
G1 X  57.573 Y   5.122
G1 X  57.489 Y   5.461
F150
G1 Z   2.000
M9 M5

(* SHAPE Nr: 123 *)
G0 X  42.418 Y   2.709
M3 M8
G0 Z   2.000 
F150
G1 Z  -0.125
F70
G1 X  42.418 Y   2.921
G1 X  42.503 Y   3.260
G1 X  43.011 Y   3.768
G1 X  43.265 Y   3.852
G1 X  43.265 Y   3.852
G1 X  43.561 Y   3.852
G1 X  43.900 Y   3.768
G1 X  44.365 Y   3.302
G1 X  52.451 Y   3.302
G1 X  52.917 Y   3.768
G1 X  53.255 Y   3.852
G1 X  53.467 Y   3.852
G1 X  53.806 Y   3.768
G1 X  54.314 Y   3.260
G1 X  54.398 Y   2.921
G1 X  54.398 Y   2.709
G1 X  54.314 Y   2.371
G1 X  53.806 Y   1.863
G1 X  53.467 Y   1.778
G1 X  53.255 Y   1.778
G1 X  52.917 Y   1.863
G1 X  52.451 Y   2.328
G1 X  44.365 Y   2.328
G1 X  43.900 Y   1.863
G1 X  43.561 Y   1.778
G1 X  43.349 Y   1.778
G1 X  43.011 Y   1.863
G1 X  42.503 Y   2.371
G1 X  42.418 Y   2.709
F150
G1 Z   2.000
M9 M5
G0 X   0.000 Y   0.000
M2 (Program end)
