(Generated with: DXF2GCODE, Version: PyQt4 Beta, Date: $Date:: 2014-02-11 12:27:10#$)
(Created from file: /home/schef/reiner/reiner_sve.dxf)
(Time: Thu May  8 19:22:38 2014)
G21 (Units in millimeters) G90 (Absolute programming) G64 (Default cutting) G17 (XY plane) G40 (Cancel radius comp.) G49 (Cancel length comp.)
G0 Z  15.000 

(*** LAYER: bottom ***)
T1 M6
S6000

(* SHAPE Nr: 0 *)
G0 X  63.077 Y   5.461
M3 M8
G0 Z   2.000 
F150
G1 Z  -0.125
F70
G1 X  63.077 Y   5.673
G1 X  63.161 Y   6.011
G1 X  63.669 Y   6.519
G1 X  64.008 Y   6.604
G1 X  64.220 Y   6.604
G1 X  64.558 Y   6.519
G1 X  65.024 Y   6.054
G1 X  65.744 Y   6.054
G1 X  66.252 Y   6.562
G1 X  67.014 Y   7.578
G1 X  67.225 Y   7.747
G1 X  96.266 Y   7.789
G1 X  96.308 Y  11.091
G1 X  96.562 Y  11.345
G1 X 104.648 Y  11.388
G1 X 104.648 Y  13.462
G1 X 104.182 Y  13.928
G1 X 104.098 Y  14.266
G1 X 104.098 Y  14.478
G1 X 104.182 Y  14.817
G1 X 104.690 Y  15.325
G1 X 105.029 Y  15.409
G1 X 105.241 Y  15.409
G1 X 105.579 Y  15.325
G1 X 105.918 Y  15.028
G1 X 109.051 Y  15.028
G1 X 109.516 Y  15.494
G1 X 109.770 Y  15.579
G1 X 109.770 Y  15.579
G1 X 110.067 Y  15.579
G1 X 110.405 Y  15.494
G1 X 110.913 Y  14.986
G1 X 110.998 Y  14.647
G1 X 110.998 Y  14.436
G1 X 110.913 Y  14.097
G1 X 110.405 Y  13.589
G1 X 110.067 Y  13.504
G1 X 109.855 Y  13.504
G1 X 109.516 Y  13.589
G1 X 109.051 Y  14.055
G1 X 106.087 Y  14.055
G1 X 106.087 Y  13.928
G1 X 105.622 Y  13.462
G1 X 105.579 Y  10.710
G1 X 105.325 Y  10.456
G1 X  97.240 Y  10.414
G1 X  97.197 Y   7.112
G1 X  96.943 Y   6.858
G1 X  67.649 Y   6.816
G1 X  67.310 Y   6.350
G1 X  67.606 Y   6.011
G1 X  67.691 Y   5.673
G1 X  67.691 Y   5.461
G1 X  67.606 Y   5.122
G1 X  67.098 Y   4.614
G1 X  66.760 Y   4.530
G1 X  66.548 Y   4.530
G1 X  66.209 Y   4.614
G1 X  65.744 Y   5.080
G1 X  65.024 Y   5.080
G1 X  64.558 Y   4.614
G1 X  64.220 Y   4.530
G1 X  64.008 Y   4.530
G1 X  63.669 Y   4.614
G1 X  63.161 Y   5.122
G1 X  63.077 Y   5.461
F150
G1 Z   2.000
M9 M5

(* SHAPE Nr: 1 *)
G0 X  60.537 Y  13.081
M3 M8
G0 Z   2.000 
F150
G1 Z  -0.125
F70
G1 X  60.537 Y  13.293
G1 X  60.621 Y  13.631
G1 X  61.129 Y  14.139
G1 X  61.383 Y  14.224
G1 X  61.383 Y  14.224
G1 X  61.680 Y  14.224
G1 X  62.018 Y  14.139
G1 X  62.484 Y  13.674
G1 X  63.204 Y  13.674
G1 X  63.669 Y  14.139
G1 X  64.008 Y  14.224
G1 X  64.220 Y  14.224
G1 X  64.558 Y  14.139
G1 X  65.066 Y  13.631
G1 X  65.151 Y  13.293
G1 X  65.151 Y  13.081
G1 X  65.066 Y  12.742
G1 X  64.558 Y  12.234
G1 X  64.220 Y  12.150
G1 X  64.008 Y  12.150
G1 X  63.669 Y  12.234
G1 X  63.204 Y  12.700
G1 X  62.484 Y  12.700
G1 X  62.018 Y  12.234
G1 X  61.680 Y  12.150
G1 X  61.468 Y  12.150
G1 X  61.129 Y  12.234
G1 X  60.621 Y  12.742
G1 X  60.537 Y  13.081
F150
G1 Z   2.000
M9 M5

(* SHAPE Nr: 2 *)
G0 X  57.997 Y   5.461
M3 M8
G0 Z   2.000 
F150
G1 Z  -0.125
F70
G1 X  57.997 Y   5.673
G1 X  58.081 Y   6.011
G1 X  58.547 Y   6.477
G1 X  58.547 Y   8.805
G1 X  58.166 Y   9.229
G1 X  58.081 Y   9.567
G1 X  58.081 Y   9.779
G1 X  58.166 Y  10.118
G1 X  58.547 Y  10.541
G1 X  58.589 Y  11.684
G1 X  58.843 Y  11.938
G1 X  65.447 Y  11.980
G1 X  65.955 Y  12.446
G1 X  65.701 Y  12.785
G1 X  65.617 Y  13.039
G1 X  65.617 Y  13.293
G1 X  65.701 Y  13.631
G1 X  66.209 Y  14.139
G1 X  66.463 Y  14.224
G1 X  66.463 Y  14.224
G1 X  66.760 Y  14.224
G1 X  67.098 Y  14.139
G1 X  67.606 Y  13.631
G1 X  67.691 Y  13.250
G1 X  67.649 Y  12.912
G1 X  67.522 Y  12.615
G1 X  67.098 Y  12.277
G1 X  65.828 Y  11.049
G1 X  59.521 Y  11.007
G1 X  59.521 Y  10.668
G1 X  60.071 Y  10.118
G1 X  60.156 Y   9.779
G1 X  60.156 Y   9.567
G1 X  60.071 Y   9.229
G1 X  59.521 Y   8.678
G1 X  59.521 Y   6.477
G1 X  59.986 Y   6.011
G1 X  60.071 Y   5.673
G1 X  60.071 Y   5.461
G1 X  59.986 Y   5.122
G1 X  59.478 Y   4.614
G1 X  59.140 Y   4.530
G1 X  58.928 Y   4.530
G1 X  58.589 Y   4.614
G1 X  58.081 Y   5.122
G1 X  57.997 Y   5.461
F150
G1 Z   2.000
M9 M5

(* SHAPE Nr: 3 *)
G0 X  63.923 Y   9.567
M3 M8
G0 Z   2.000 
F150
G1 Z  -0.125
F70
G1 X  63.923 Y   9.779
G1 X  64.008 Y  10.118
G1 X  64.516 Y  10.626
G1 X  64.855 Y  10.710
G1 X  65.066 Y  10.710
G1 X  65.405 Y  10.626
G1 X  65.871 Y  10.160
G1 X  67.860 Y  10.160
G1 X  68.707 Y  11.049
G1 X  68.707 Y  12.277
G1 X  68.241 Y  12.742
G1 X  68.157 Y  13.081
G1 X  68.157 Y  13.293
G1 X  68.241 Y  13.631
G1 X  68.749 Y  14.139
G1 X  69.003 Y  14.224
G1 X  69.003 Y  14.224
G1 X  69.300 Y  14.224
G1 X  69.638 Y  14.139
G1 X  70.146 Y  13.631
G1 X  70.231 Y  13.293
G1 X  70.231 Y  13.081
G1 X  70.146 Y  12.742
G1 X  69.681 Y  12.277
G1 X  69.638 Y  10.668
G1 X  68.199 Y   9.229
G1 X  65.871 Y   9.186
G1 X  65.405 Y   8.721
G1 X  65.066 Y   8.636
G1 X  64.855 Y   8.636
G1 X  64.516 Y   8.721
G1 X  64.008 Y   9.229
G1 X  63.923 Y   9.567
F150
G1 Z   2.000
M9 M5

(* SHAPE Nr: 4 *)
G0 X  30.480 Y   7.197
M3 M8
G0 Z   2.000 
F150
G1 Z  -0.125
F70
G1 X  30.438 Y  11.557
G1 X  29.972 Y  12.023
G1 X  29.887 Y  12.361
G1 X  29.887 Y  12.573
G1 X  29.972 Y  12.912
G1 X  30.480 Y  13.420
G1 X  30.734 Y  13.504
G1 X  30.734 Y  13.504
G1 X  31.030 Y  13.504
G1 X  31.369 Y  13.420
G1 X  31.877 Y  12.912
G1 X  31.962 Y  12.573
G1 X  31.962 Y  12.361
G1 X  31.877 Y  12.023
G1 X  31.411 Y  11.557
G1 X  31.411 Y   7.620
G1 X  45.085 Y   7.578
G1 X  51.181 Y   1.524
G1 X  68.792 Y   1.524
G1 X  68.792 Y   4.572
G1 X  68.241 Y   5.122
G1 X  68.157 Y   5.461
G1 X  68.157 Y   5.673
G1 X  68.241 Y   6.011
G1 X  68.749 Y   6.519
G1 X  69.088 Y   6.604
G1 X  69.300 Y   6.604
G1 X  69.638 Y   6.519
G1 X  70.146 Y   6.011
G1 X  70.231 Y   5.673
G1 X  70.231 Y   5.461
G1 X  70.146 Y   5.122
G1 X  69.765 Y   4.699
G1 X  69.723 Y   0.847
G1 X  69.469 Y   0.593
G1 X  50.800 Y   0.593
G1 X  44.704 Y   6.646
G1 X  30.988 Y   6.689
G1 X  30.480 Y   7.197
F150
G1 Z   2.000
M9 M5

(* SHAPE Nr: 5 *)
G0 X  70.527 Y   2.709
M3 M8
G0 Z   2.000 
F150
G1 Z  -0.125
F70
G1 X  70.527 Y   2.921
G1 X  70.612 Y   3.260
G1 X  71.120 Y   3.768
G1 X  71.247 Y   3.768
G1 X  71.247 Y   4.657
G1 X  70.781 Y   5.122
G1 X  70.697 Y   5.461
G1 X  70.697 Y   5.673
G1 X  70.781 Y   6.011
G1 X  71.289 Y   6.519
G1 X  71.628 Y   6.604
G1 X  71.840 Y   6.604
G1 X  72.178 Y   6.519
G1 X  72.644 Y   6.054
G1 X 102.743 Y   6.054
G1 X 103.209 Y   6.477
G1 X 103.209 Y   8.255
G1 X 102.743 Y   8.721
G1 X 102.658 Y   9.059
G1 X 102.658 Y   9.271
G1 X 102.743 Y   9.610
G1 X 103.251 Y  10.118
G1 X 103.505 Y  10.202
G1 X 103.505 Y  10.202
G1 X 103.801 Y  10.202
G1 X 104.140 Y  10.118
G1 X 104.648 Y   9.610
G1 X 104.733 Y   9.271
G1 X 104.733 Y   9.059
G1 X 104.648 Y   8.721
G1 X 104.182 Y   8.255
G1 X 104.140 Y   6.138
G1 X 103.124 Y   5.122
G1 X  72.644 Y   5.080
G1 X  72.221 Y   4.657
G1 X  72.221 Y   3.598
G1 X  72.517 Y   3.260
G1 X  72.602 Y   2.921
G1 X  72.602 Y   2.709
G1 X  72.517 Y   2.371
G1 X  72.009 Y   1.863
G1 X  71.670 Y   1.778
G1 X  71.459 Y   1.778
G1 X  71.120 Y   1.863
G1 X  70.612 Y   2.371
G1 X  70.527 Y   2.709
F150
G1 Z   2.000
M9 M5

(* SHAPE Nr: 6 *)
G0 X  48.683 Y   6.435
M3 M8
G0 Z   2.000 
F150
G1 Z  -0.125
F70
G1 X  48.683 Y   6.646
G1 X  48.768 Y   6.985
G1 X  49.276 Y   7.493
G1 X  49.530 Y   7.578
G1 X  49.530 Y   7.578
G1 X  49.826 Y   7.578
G1 X  50.165 Y   7.493
G1 X  50.673 Y   6.985
G1 X  50.758 Y   6.646
G1 X  50.758 Y   6.435
G1 X  50.673 Y   6.096
G1 X  50.165 Y   5.588
G1 X  49.826 Y   5.503
G1 X  49.615 Y   5.503
G1 X  49.276 Y   5.588
G1 X  48.768 Y   6.096
G1 X  48.683 Y   6.435
F150
G1 Z   2.000
M9 M5

(* SHAPE Nr: 7 *)
G0 X  60.621 Y   2.709
M3 M8
G0 Z   2.000 
F150
G1 Z  -0.125
F70
G1 X  60.621 Y   2.921
G1 X  60.706 Y   3.260
G1 X  61.087 Y   3.683
G1 X  61.087 Y   4.657
G1 X  60.621 Y   5.122
G1 X  60.537 Y   5.461
G1 X  60.537 Y   5.673
G1 X  60.621 Y   6.011
G1 X  61.129 Y   6.519
G1 X  61.383 Y   6.604
G1 X  61.383 Y   6.604
G1 X  61.680 Y   6.604
G1 X  62.018 Y   6.519
G1 X  62.526 Y   6.011
G1 X  62.611 Y   5.673
G1 X  62.611 Y   5.461
G1 X  62.526 Y   5.122
G1 X  62.061 Y   4.657
G1 X  62.061 Y   3.810
G1 X  62.611 Y   3.260
G1 X  62.696 Y   2.921
G1 X  62.696 Y   2.709
G1 X  62.611 Y   2.371
G1 X  62.103 Y   1.863
G1 X  61.764 Y   1.778
G1 X  61.553 Y   1.778
G1 X  61.214 Y   1.863
G1 X  60.706 Y   2.371
G1 X  60.621 Y   2.709
F150
G1 Z   2.000
M9 M5

(* SHAPE Nr: 8 *)
G0 X   6.350 Y  13.716
M3 M8
G0 Z   2.000 
F150
G1 Z  -0.125
F70
G1 X   6.096 Y  13.970
G1 X   6.054 Y  22.352
G1 X   5.630 Y  22.775
G1 X   4.403 Y  22.818
G1 X   4.149 Y  23.072
G1 X   4.149 Y  44.027
G1 X   4.318 Y  44.238
G1 X   4.487 Y  44.323
G1 X   4.487 Y  44.323
G1 X  74.972 Y  44.281
G1 X  75.226 Y  44.027
G1 X  75.226 Y  18.754
G1 X  75.438 Y  18.500
G1 X  75.650 Y  18.500
G1 X  76.115 Y  18.965
G1 X  76.454 Y  19.050
G1 X  76.666 Y  19.050
G1 X  77.004 Y  18.965
G1 X  77.512 Y  18.457
G1 X  77.597 Y  18.119
G1 X  77.597 Y  17.907
G1 X  77.512 Y  17.568
G1 X  77.004 Y  17.060
G1 X  76.666 Y  16.976
G1 X  76.454 Y  16.976
G1 X  76.115 Y  17.060
G1 X  75.650 Y  17.526
G1 X  75.226 Y  17.526
G1 X  75.015 Y  17.611
G1 X  74.295 Y  18.330
G1 X  74.253 Y  43.349
G1 X   5.080 Y  43.349
G1 X   5.080 Y  23.749
G1 X   5.630 Y  23.749
G1 X   6.096 Y  24.215
G1 X   6.435 Y  24.299
G1 X   6.646 Y  24.299
G1 X   6.985 Y  24.215
G1 X   7.493 Y  23.707
G1 X   7.578 Y  23.368
G1 X   7.578 Y  23.156
G1 X   7.493 Y  22.818
G1 X   7.027 Y  22.352
G1 X   7.027 Y  14.690
G1 X  33.189 Y  14.647
G1 X  33.655 Y  14.182
G1 X  33.697 Y  11.726
G1 X  34.205 Y  11.218
G1 X  44.662 Y  11.218
G1 X  44.662 Y  19.177
G1 X  44.281 Y  19.516
G1 X  30.734 Y  19.558
G1 X  30.480 Y  19.812
G1 X  30.438 Y  28.829
G1 X  29.972 Y  29.295
G1 X  29.887 Y  29.633
G1 X  29.887 Y  29.845
G1 X  29.972 Y  30.184
G1 X  30.480 Y  30.692
G1 X  30.819 Y  30.776
G1 X  31.030 Y  30.776
G1 X  31.369 Y  30.692
G1 X  31.877 Y  30.184
G1 X  31.962 Y  29.845
G1 X  31.962 Y  29.633
G1 X  31.877 Y  29.295
G1 X  31.411 Y  28.829
G1 X  31.411 Y  20.489
G1 X  44.662 Y  20.447
G1 X  45.593 Y  19.516
G1 X  45.635 Y  11.218
G1 X  54.017 Y  11.218
G1 X  54.060 Y  24.934
G1 X  54.314 Y  25.188
G1 X  57.446 Y  25.231
G1 X  57.870 Y  25.654
G1 X  57.912 Y  26.755
G1 X  60.156 Y  29.041
G1 X  60.113 Y  29.422
G1 X  60.198 Y  29.803
G1 X  60.706 Y  30.311
G1 X  61.045 Y  30.395
G1 X  61.256 Y  30.395
G1 X  61.595 Y  30.311
G1 X  62.103 Y  29.803
G1 X  62.188 Y  29.464
G1 X  62.188 Y  29.252
G1 X  62.103 Y  28.914
G1 X  61.595 Y  28.406
G1 X  61.214 Y  28.321
G1 X  60.833 Y  28.363
G1 X  58.843 Y  26.416
G1 X  58.843 Y  25.654
G1 X  59.309 Y  25.188
G1 X  59.394 Y  24.850
G1 X  59.394 Y  24.638
G1 X  59.309 Y  24.299
G1 X  58.801 Y  23.791
G1 X  58.462 Y  23.707
G1 X  58.251 Y  23.707
G1 X  57.912 Y  23.791
G1 X  57.446 Y  24.257
G1 X  54.991 Y  24.257
G1 X  54.991 Y   6.054
G1 X  55.584 Y   6.054
G1 X  56.049 Y   6.519
G1 X  56.388 Y   6.604
G1 X  56.600 Y   6.604
G1 X  56.938 Y   6.519
G1 X  57.446 Y   6.011
G1 X  57.531 Y   5.673
G1 X  57.531 Y   5.461
G1 X  57.446 Y   5.122
G1 X  56.938 Y   4.614
G1 X  56.600 Y   4.530
G1 X  56.388 Y   4.530
G1 X  56.049 Y   4.614
G1 X  55.584 Y   5.080
G1 X  54.314 Y   5.122
G1 X  54.060 Y   5.376
G1 X  54.017 Y  10.245
G1 X  34.205 Y  10.245
G1 X  33.740 Y   9.779
G1 X  33.401 Y   9.694
G1 X  33.189 Y   9.694
G1 X  32.851 Y   9.779
G1 X  32.343 Y  10.287
G1 X  32.258 Y  10.626
G1 X  32.258 Y  10.837
G1 X  32.343 Y  11.176
G1 X  32.724 Y  11.599
G1 X  32.724 Y  13.716
G1 X   6.350 Y  13.716
F150
G1 Z   2.000
M9 M5

(* SHAPE Nr: 9 *)
G0 X  76.285 Y  33.613
M3 M8
G0 Z   2.000 
F150
G1 Z  -0.125
F70
G1 X  76.200 Y  33.951
G1 X  76.200 Y  34.163
G1 X  76.285 Y  34.502
G1 X  76.793 Y  35.010
G1 X  77.131 Y  35.094
G1 X  77.385 Y  35.094
G1 X  77.724 Y  34.967
G1 X  83.524 Y  34.967
G1 X  83.524 Y  41.233
G1 X  82.719 Y  41.233
G1 X  82.677 Y  41.063
G1 X  82.296 Y  40.682
G1 X  81.915 Y  40.513
G1 X  81.280 Y  40.513
G1 X  80.899 Y  40.682
G1 X  80.560 Y  41.021
G1 X  80.391 Y  41.402
G1 X  80.349 Y  41.825
G1 X  80.476 Y  42.291
G1 X  80.730 Y  42.587
G1 X  80.984 Y  42.799
G1 X  81.407 Y  42.968
G1 X  81.407 Y  42.968
G1 X  81.915 Y  42.926
G1 X  82.296 Y  42.757
G1 X  82.677 Y  42.376
G1 X  82.719 Y  42.206
G1 X  84.201 Y  42.164
G1 X  84.455 Y  41.910
G1 X  84.455 Y  34.290
G1 X  84.201 Y  34.036
G1 X  78.274 Y  33.994
G1 X  78.190 Y  33.613
G1 X  77.682 Y  33.105
G1 X  77.343 Y  33.020
G1 X  77.131 Y  33.020
G1 X  76.793 Y  33.105
G1 X  76.285 Y  33.613
F150
G1 Z   2.000
M9 M5

(* SHAPE Nr: 10 *)
G0 X  88.180 Y  41.021
M3 M8
G0 Z   2.000 
F150
G1 Z  -0.125
F70
G1 X  88.011 Y  41.402
G1 X  87.969 Y  41.825
G1 X  88.096 Y  42.291
G1 X  88.350 Y  42.587
G1 X  88.604 Y  42.799
G1 X  89.027 Y  42.968
G1 X  89.027 Y  42.968
G1 X  89.535 Y  42.926
G1 X  89.916 Y  42.757
G1 X  90.255 Y  42.418
G1 X  90.424 Y  42.037
G1 X  90.424 Y  41.402
G1 X  90.424 Y  41.190
G1 X  92.456 Y  41.148
G1 X  92.456 Y  41.698
G1 X  94.573 Y  41.698
G1 X  94.573 Y  39.582
G1 X  92.456 Y  39.582
G1 X  92.456 Y  40.174
G1 X  90.085 Y  40.217
G1 X  89.704 Y  40.555
G1 X  89.281 Y  40.471
G1 X  88.900 Y  40.513
G1 X  88.519 Y  40.682
G1 X  88.180 Y  41.021
F150
G1 Z   2.000
M9 M5

(* SHAPE Nr: 11 *)
G0 X  18.669 Y  19.431
M3 M8
G0 Z   2.000 
F150
G1 Z  -0.125
F70
G1 X  18.669 Y  21.548
G1 X  19.219 Y  21.548
G1 X  19.219 Y  35.941
G1 X  18.796 Y  35.983
G1 X  18.373 Y  36.280
G1 X  18.076 Y  36.661
G1 X  17.992 Y  36.999
G1 X  18.034 Y  37.423
G1 X  18.288 Y  37.846
G1 X  18.669 Y  38.142
G1 X  18.669 Y  38.735
G1 X  14.647 Y  38.735
G1 X  14.605 Y  36.449
G1 X  14.351 Y  36.195
G1 X   8.805 Y  36.195
G1 X   8.551 Y  36.449
G1 X   8.551 Y  42.630
G1 X   8.721 Y  42.841
G1 X   8.890 Y  42.926
G1 X   8.890 Y  42.926
G1 X  46.355 Y  42.884
G1 X  46.609 Y  42.630
G1 X  46.651 Y  38.269
G1 X  47.075 Y  37.846
G1 X  53.509 Y  37.846
G1 X  53.552 Y  38.862
G1 X  53.806 Y  39.116
G1 X  71.924 Y  39.116
G1 X  72.178 Y  38.862
G1 X  72.221 Y  14.097
G1 X  72.644 Y  13.674
G1 X  75.311 Y  13.674
G1 X  75.438 Y  13.970
G1 X  75.861 Y  14.351
G1 X  76.200 Y  14.436
G1 X  76.412 Y  14.436
G1 X  76.750 Y  14.351
G1 X  77.216 Y  13.885
G1 X  78.952 Y  13.885
G1 X  78.994 Y  20.024
G1 X  79.248 Y  20.278
G1 X  99.780 Y  20.320
G1 X  99.822 Y  40.259
G1 X 100.499 Y  40.979
G1 X 100.499 Y  41.063
G1 X 100.753 Y  41.275
G1 X 103.463 Y  41.360
G1 X 103.759 Y  41.698
G1 X 104.182 Y  41.952
G1 X 104.817 Y  41.952
G1 X 105.241 Y  41.698
G1 X 105.537 Y  41.360
G1 X 106.553 Y  41.275
G1 X 106.807 Y  41.021
G1 X 106.807 Y  35.137
G1 X 104.055 Y  32.343
G1 X 104.055 Y  31.708
G1 X 104.775 Y  31.708
G1 X 104.775 Y  29.295
G1 X 102.362 Y  29.295
G1 X 102.362 Y  31.708
G1 X 103.082 Y  31.708
G1 X 103.124 Y  32.724
G1 X 105.876 Y  35.518
G1 X 105.876 Y  40.344
G1 X 105.537 Y  40.344
G1 X 105.241 Y  39.963
G1 X 104.817 Y  39.709
G1 X 104.182 Y  39.709
G1 X 103.759 Y  39.963
G1 X 103.463 Y  40.344
G1 X 101.219 Y  40.344
G1 X 100.753 Y  39.920
G1 X 100.753 Y  15.621
G1 X 101.431 Y  15.621
G1 X 101.431 Y  13.208
G1 X  99.018 Y  13.208
G1 X  99.018 Y  15.621
G1 X  99.780 Y  15.621
G1 X  99.780 Y  19.346
G1 X  79.925 Y  19.346
G1 X  79.883 Y  13.208
G1 X  79.629 Y  12.954
G1 X  77.216 Y  12.912
G1 X  76.750 Y  12.446
G1 X  76.412 Y  12.361
G1 X  76.158 Y  12.361
G1 X  75.904 Y  12.446
G1 X  75.565 Y  12.700
G1 X  72.644 Y  12.700
G1 X  72.178 Y  12.234
G1 X  71.840 Y  12.150
G1 X  71.628 Y  12.150
G1 X  71.289 Y  12.234
G1 X  70.781 Y  12.742
G1 X  70.697 Y  13.081
G1 X  70.697 Y  13.293
G1 X  70.781 Y  13.631
G1 X  71.247 Y  14.097
G1 X  71.247 Y  38.185
G1 X  54.483 Y  38.185
G1 X  54.483 Y  35.729
G1 X  55.033 Y  35.729
G1 X  55.033 Y  33.613
G1 X  54.483 Y  33.613
G1 X  54.441 Y  26.458
G1 X  53.255 Y  25.231
G1 X  53.213 Y  22.564
G1 X  52.705 Y  22.056
G1 X  47.032 Y  22.013
G1 X  47.032 Y  21.421
G1 X  44.916 Y  21.421
G1 X  44.916 Y  23.537
G1 X  47.032 Y  23.537
G1 X  47.032 Y  22.987
G1 X  52.282 Y  22.987
G1 X  52.324 Y  25.612
G1 X  53.509 Y  26.839
G1 X  53.509 Y  33.613
G1 X  52.917 Y  33.613
G1 X  52.917 Y  35.729
G1 X  53.509 Y  35.729
G1 X  53.509 Y  36.872
G1 X  47.075 Y  36.872
G1 X  46.609 Y  36.407
G1 X  46.270 Y  36.322
G1 X  46.059 Y  36.322
G1 X  45.720 Y  36.407
G1 X  45.212 Y  36.915
G1 X  45.127 Y  37.253
G1 X  45.127 Y  37.465
G1 X  45.212 Y  37.804
G1 X  45.678 Y  38.269
G1 X  45.678 Y  41.952
G1 X   9.483 Y  41.952
G1 X   9.483 Y  37.126
G1 X  13.674 Y  37.126
G1 X  13.716 Y  39.412
G1 X  13.970 Y  39.666
G1 X  19.346 Y  39.666
G1 X  19.600 Y  39.412
G1 X  19.685 Y  38.142
G1 X  20.024 Y  37.888
G1 X  20.278 Y  37.465
G1 X  20.320 Y  37.084
G1 X  25.188 Y  37.084
G1 X  25.188 Y  37.634
G1 X  27.305 Y  37.634
G1 X  27.305 Y  35.518
G1 X  25.188 Y  35.518
G1 X  25.188 Y  36.110
G1 X  20.193 Y  36.110
G1 X  20.193 Y  21.548
G1 X  20.786 Y  21.548
G1 X  20.786 Y  19.431
G1 X  18.669 Y  19.431
F150
G1 Z   2.000
M9 M5

(* SHAPE Nr: 12 *)
G0 X  10.668 Y  37.380
M3 M8
G0 Z   2.000 
F150
G1 Z  -0.125
F70
G1 X  10.160 Y  37.888
G1 X  10.075 Y  38.227
G1 X  10.075 Y  38.439
G1 X  10.160 Y  38.777
G1 X  10.626 Y  39.243
G1 X  10.668 Y  41.148
G1 X  10.837 Y  41.360
G1 X  11.007 Y  41.444
G1 X  11.007 Y  41.444
G1 X  43.815 Y  41.402
G1 X  44.069 Y  41.148
G1 X  44.111 Y  38.269
G1 X  44.577 Y  37.804
G1 X  44.662 Y  37.465
G1 X  44.662 Y  37.253
G1 X  44.577 Y  36.915
G1 X  44.069 Y  36.407
G1 X  43.730 Y  36.322
G1 X  43.519 Y  36.322
G1 X  43.180 Y  36.407
G1 X  42.672 Y  36.915
G1 X  42.587 Y  37.253
G1 X  42.587 Y  37.465
G1 X  42.672 Y  37.804
G1 X  43.138 Y  38.269
G1 X  43.138 Y  40.471
G1 X  11.599 Y  40.471
G1 X  11.599 Y  39.243
G1 X  12.065 Y  38.777
G1 X  12.150 Y  38.439
G1 X  12.150 Y  38.227
G1 X  12.065 Y  37.888
G1 X  11.557 Y  37.380
G1 X  11.218 Y  37.296
G1 X  11.007 Y  37.296
G1 X  10.668 Y  37.380
F150
G1 Z   2.000
M9 M5

(* SHAPE Nr: 13 *)
G0 X  21.971 Y  18.161
M3 M8
G0 Z   2.000 
F150
G1 Z  -0.125
F70
G1 X  21.971 Y  34.671
G1 X  22.225 Y  34.925
G1 X  27.898 Y  34.967
G1 X  27.898 Y  38.650
G1 X  27.136 Y  38.650
G1 X  26.670 Y  38.185
G1 X  26.331 Y  38.100
G1 X  26.120 Y  38.100
G1 X  25.781 Y  38.185
G1 X  25.273 Y  38.693
G1 X  25.188 Y  39.031
G1 X  25.188 Y  39.243
G1 X  25.273 Y  39.582
G1 X  25.781 Y  40.090
G1 X  26.035 Y  40.174
G1 X  26.035 Y  40.174
G1 X  26.331 Y  40.174
G1 X  26.670 Y  40.090
G1 X  27.136 Y  39.624
G1 X  28.575 Y  39.582
G1 X  28.829 Y  39.328
G1 X  28.871 Y  37.846
G1 X  29.845 Y  37.846
G1 X  29.845 Y  38.439
G1 X  31.962 Y  38.439
G1 X  31.962 Y  37.846
G1 X  32.554 Y  37.846
G1 X  33.020 Y  38.312
G1 X  33.359 Y  38.396
G1 X  33.570 Y  38.396
G1 X  33.909 Y  38.312
G1 X  34.417 Y  37.804
G1 X  34.502 Y  37.465
G1 X  34.502 Y  37.253
G1 X  34.417 Y  36.915
G1 X  33.909 Y  36.407
G1 X  33.570 Y  36.322
G1 X  33.359 Y  36.322
G1 X  33.020 Y  36.407
G1 X  32.554 Y  36.872
G1 X  31.962 Y  36.872
G1 X  31.962 Y  36.322
G1 X  29.845 Y  36.322
G1 X  29.845 Y  36.872
G1 X  28.871 Y  36.872
G1 X  28.829 Y  34.290
G1 X  28.575 Y  34.036
G1 X  22.902 Y  33.994
G1 X  22.902 Y  18.838
G1 X  32.385 Y  18.838
G1 X  32.851 Y  19.304
G1 X  33.189 Y  19.389
G1 X  33.401 Y  19.389
G1 X  33.740 Y  19.304
G1 X  34.248 Y  18.796
G1 X  34.332 Y  18.457
G1 X  34.332 Y  18.246
G1 X  34.248 Y  17.907
G1 X  33.740 Y  17.399
G1 X  33.401 Y  17.314
G1 X  33.189 Y  17.314
G1 X  32.851 Y  17.399
G1 X  32.385 Y  17.865
G1 X  22.225 Y  17.907
G1 X  21.971 Y  18.161
F150
G1 Z   2.000
M9 M5

(* SHAPE Nr: 14 *)
G0 X 101.007 Y  28.194
M3 M8
G0 Z   2.000 
F150
G1 Z  -0.125
F70
G1 X 101.007 Y  37.465
G1 X 102.362 Y  38.820
G1 X 103.336 Y  38.862
G1 X 103.336 Y  39.497
G1 X 103.336 Y  39.497
G1 X 105.706 Y  39.497
G1 X 105.706 Y  37.126
G1 X 103.336 Y  37.126
G1 X 103.336 Y  37.888
G1 X 102.743 Y  37.888
G1 X 101.939 Y  37.126
G1 X 101.939 Y  28.871
G1 X 107.061 Y  28.829
G1 X 107.315 Y  28.575
G1 X 107.357 Y  20.659
G1 X 111.887 Y  20.616
G1 X 112.141 Y  20.362
G1 X 112.183 Y   9.737
G1 X 112.310 Y   9.440
G1 X 112.353 Y   9.102
G1 X 112.268 Y   8.721
G1 X 111.760 Y   8.213
G1 X 111.421 Y   8.128
G1 X 111.210 Y   8.128
G1 X 110.871 Y   8.213
G1 X 110.363 Y   8.721
G1 X 110.278 Y   9.059
G1 X 110.278 Y   9.271
G1 X 110.363 Y   9.610
G1 X 110.871 Y  10.118
G1 X 111.210 Y  10.202
G1 X 111.210 Y  19.685
G1 X 106.680 Y  19.727
G1 X 106.426 Y  19.981
G1 X 106.384 Y  27.898
G1 X 101.261 Y  27.940
G1 X 101.007 Y  28.194
F150
G1 Z   2.000
M9 M5

(* SHAPE Nr: 15 *)
G0 X  88.011 Y  36.322
M3 M8
G0 Z   2.000 
F150
G1 Z  -0.125
F70
G1 X  88.011 Y  36.957
G1 X  88.180 Y  37.338
G1 X  88.519 Y  37.677
G1 X  88.900 Y  37.846
G1 X  89.281 Y  37.888
G1 X  89.704 Y  37.804
G1 X  90.509 Y  38.566
G1 X  92.583 Y  38.608
G1 X  93.049 Y  39.074
G1 X  93.303 Y  39.158
G1 X  93.303 Y  39.158
G1 X  93.599 Y  39.158
G1 X  93.938 Y  39.074
G1 X  94.446 Y  38.566
G1 X  94.530 Y  38.227
G1 X  94.530 Y  38.015
G1 X  94.446 Y  37.677
G1 X  93.938 Y  37.169
G1 X  93.599 Y  37.084
G1 X  93.387 Y  37.084
G1 X  93.049 Y  37.169
G1 X  92.583 Y  37.634
G1 X  90.847 Y  37.634
G1 X  90.382 Y  37.126
G1 X  90.466 Y  36.703
G1 X  90.424 Y  36.322
G1 X  90.255 Y  35.941
G1 X  89.916 Y  35.602
G1 X  89.535 Y  35.433
G1 X  88.900 Y  35.433
G1 X  88.519 Y  35.602
G1 X  88.180 Y  35.941
G1 X  88.011 Y  36.322
F150
G1 Z   2.000
M9 M5

(* SHAPE Nr: 16 *)
G0 X  35.560 Y  36.407
M3 M8
G0 Z   2.000 
F150
G1 Z  -0.125
F70
G1 X  35.052 Y  36.915
G1 X  34.967 Y  37.253
G1 X  34.967 Y  37.465
G1 X  35.052 Y  37.804
G1 X  35.560 Y  38.312
G1 X  35.814 Y  38.396
G1 X  35.814 Y  38.396
G1 X  36.110 Y  38.396
G1 X  36.449 Y  38.312
G1 X  36.915 Y  37.846
G1 X  37.634 Y  37.846
G1 X  38.100 Y  38.312
G1 X  38.439 Y  38.396
G1 X  38.650 Y  38.396
G1 X  38.989 Y  38.312
G1 X  39.497 Y  37.804
G1 X  39.582 Y  37.465
G1 X  39.582 Y  37.253
G1 X  39.497 Y  36.915
G1 X  38.989 Y  36.407
G1 X  38.650 Y  36.322
G1 X  38.439 Y  36.322
G1 X  38.100 Y  36.407
G1 X  37.634 Y  36.872
G1 X  36.915 Y  36.872
G1 X  36.449 Y  36.407
G1 X  36.110 Y  36.322
G1 X  35.899 Y  36.322
G1 X  35.560 Y  36.407
F150
G1 Z   2.000
M9 M5

(* SHAPE Nr: 17 *)
G0 X  23.664 Y  30.311
M3 M8
G0 Z   2.000 
F150
G1 Z  -0.125
F70
G1 X  23.156 Y  30.819
G1 X  23.072 Y  31.157
G1 X  23.072 Y  31.369
G1 X  23.156 Y  31.708
G1 X  23.664 Y  32.216
G1 X  24.003 Y  32.300
G1 X  24.257 Y  32.300
G1 X  24.511 Y  32.216
G1 X  24.850 Y  31.962
G1 X  35.518 Y  31.962
G1 X  35.560 Y  35.348
G1 X  35.814 Y  35.602
G1 X  40.598 Y  35.645
G1 X  40.598 Y  36.449
G1 X  40.132 Y  36.915
G1 X  40.047 Y  37.253
G1 X  40.047 Y  37.465
G1 X  40.132 Y  37.804
G1 X  40.640 Y  38.312
G1 X  40.894 Y  38.396
G1 X  40.894 Y  38.396
G1 X  41.190 Y  38.396
G1 X  41.529 Y  38.312
G1 X  42.037 Y  37.804
G1 X  42.122 Y  37.465
G1 X  42.122 Y  37.253
G1 X  42.037 Y  36.915
G1 X  41.571 Y  36.449
G1 X  41.529 Y  34.967
G1 X  41.275 Y  34.713
G1 X  36.491 Y  34.671
G1 X  36.491 Y  31.962
G1 X  46.355 Y  31.919
G1 X  46.609 Y  31.665
G1 X  46.651 Y  30.649
G1 X  47.117 Y  30.184
G1 X  47.202 Y  29.845
G1 X  47.202 Y  29.633
G1 X  47.117 Y  29.295
G1 X  46.609 Y  28.787
G1 X  46.270 Y  28.702
G1 X  46.059 Y  28.702
G1 X  45.720 Y  28.787
G1 X  45.212 Y  29.295
G1 X  45.127 Y  29.633
G1 X  45.127 Y  29.845
G1 X  45.212 Y  30.184
G1 X  45.678 Y  30.649
G1 X  45.678 Y  30.988
G1 X  36.491 Y  30.988
G1 X  36.491 Y  30.649
G1 X  36.957 Y  30.184
G1 X  37.042 Y  29.845
G1 X  37.042 Y  29.633
G1 X  36.957 Y  29.295
G1 X  36.449 Y  28.787
G1 X  36.110 Y  28.702
G1 X  35.899 Y  28.702
G1 X  35.560 Y  28.787
G1 X  35.052 Y  29.295
G1 X  34.967 Y  29.633
G1 X  34.967 Y  29.845
G1 X  35.052 Y  30.184
G1 X  35.518 Y  30.649
G1 X  35.518 Y  30.988
G1 X  25.104 Y  30.988
G1 X  24.977 Y  30.692
G1 X  24.553 Y  30.311
G1 X  24.215 Y  30.226
G1 X  24.003 Y  30.226
G1 X  23.664 Y  30.311
F150
G1 Z   2.000
M9 M5

(* SHAPE Nr: 18 *)
G0 X  16.044 Y  30.311
M3 M8
G0 Z   2.000 
F150
G1 Z  -0.125
F70
G1 X  15.536 Y  30.819
G1 X  15.452 Y  31.157
G1 X  15.452 Y  31.369
G1 X  15.536 Y  31.708
G1 X  15.917 Y  32.131
G1 X  16.129 Y  32.216
G1 X  16.129 Y  35.941
G1 X  15.409 Y  35.941
G1 X  15.409 Y  38.312
G1 X  15.409 Y  38.312
G1 X  17.780 Y  38.312
G1 X  17.780 Y  35.941
G1 X  17.103 Y  35.941
G1 X  17.103 Y  32.089
G1 X  17.441 Y  31.708
G1 X  17.526 Y  31.369
G1 X  17.526 Y  31.157
G1 X  17.441 Y  30.819
G1 X  16.933 Y  30.311
G1 X  16.595 Y  30.226
G1 X  16.383 Y  30.226
G1 X  16.044 Y  30.311
F150
G1 Z   2.000
M9 M5

(* SHAPE Nr: 19 *)
G0 X  55.414 Y  12.150
M3 M8
G0 Z   2.000 
F150
G1 Z  -0.125
F70
G1 X  55.414 Y  14.266
G1 X  56.007 Y  14.266
G1 X  56.049 Y  15.875
G1 X  56.642 Y  16.468
G1 X  61.214 Y  16.510
G1 X  62.950 Y  18.203
G1 X  62.950 Y  34.205
G1 X  57.446 Y  34.205
G1 X  56.981 Y  33.740
G1 X  56.642 Y  33.655
G1 X  56.430 Y  33.655
G1 X  56.092 Y  33.740
G1 X  55.584 Y  34.248
G1 X  55.499 Y  34.586
G1 X  55.499 Y  34.798
G1 X  55.584 Y  35.137
G1 X  56.092 Y  35.645
G1 X  56.473 Y  35.729
G1 X  56.854 Y  35.687
G1 X  58.632 Y  37.423
G1 X  60.240 Y  37.465
G1 X  60.706 Y  37.931
G1 X  60.960 Y  38.015
G1 X  60.960 Y  38.015
G1 X  61.256 Y  38.015
G1 X  61.595 Y  37.931
G1 X  62.103 Y  37.423
G1 X  62.188 Y  37.084
G1 X  62.188 Y  36.872
G1 X  62.103 Y  36.534
G1 X  61.595 Y  36.026
G1 X  61.256 Y  35.941
G1 X  61.045 Y  35.941
G1 X  60.706 Y  36.026
G1 X  60.240 Y  36.491
G1 X  58.970 Y  36.491
G1 X  57.700 Y  35.179
G1 X  63.500 Y  35.137
G1 X  63.881 Y  34.756
G1 X  63.881 Y  17.865
G1 X  61.595 Y  15.579
G1 X  56.981 Y  15.536
G1 X  56.981 Y  14.266
G1 X  57.531 Y  14.266
G1 X  57.531 Y  13.674
G1 X  58.124 Y  13.674
G1 X  58.589 Y  14.139
G1 X  58.928 Y  14.224
G1 X  59.140 Y  14.224
G1 X  59.478 Y  14.139
G1 X  59.986 Y  13.631
G1 X  60.071 Y  13.293
G1 X  60.071 Y  13.081
G1 X  59.986 Y  12.742
G1 X  59.478 Y  12.234
G1 X  59.140 Y  12.150
G1 X  58.928 Y  12.150
G1 X  58.589 Y  12.234
G1 X  58.124 Y  12.700
G1 X  57.531 Y  12.700
G1 X  57.531 Y  12.150
G1 X  55.414 Y  12.150
F150
G1 Z   2.000
M9 M5

(* SHAPE Nr: 20 *)
G0 X  76.285 Y  36.153
M3 M8
G0 Z   2.000 
F150
G1 Z  -0.125
F70
G1 X  76.200 Y  36.491
G1 X  76.200 Y  36.703
G1 X  76.285 Y  37.042
G1 X  76.793 Y  37.550
G1 X  77.131 Y  37.634
G1 X  77.343 Y  37.634
G1 X  77.682 Y  37.550
G1 X  78.147 Y  37.126
G1 X  80.476 Y  37.126
G1 X  80.476 Y  37.211
G1 X  80.730 Y  37.507
G1 X  80.984 Y  37.719
G1 X  81.407 Y  37.888
G1 X  81.407 Y  37.888
G1 X  81.915 Y  37.846
G1 X  82.296 Y  37.677
G1 X  82.635 Y  37.338
G1 X  82.804 Y  36.957
G1 X  82.804 Y  36.322
G1 X  82.635 Y  35.941
G1 X  82.296 Y  35.602
G1 X  81.915 Y  35.433
G1 X  81.280 Y  35.433
G1 X  80.899 Y  35.602
G1 X  80.518 Y  35.983
G1 X  80.476 Y  36.153
G1 X  78.190 Y  36.153
G1 X  77.682 Y  35.645
G1 X  77.343 Y  35.560
G1 X  77.131 Y  35.560
G1 X  76.793 Y  35.645
G1 X  76.285 Y  36.153
F150
G1 Z   2.000
M9 M5

(* SHAPE Nr: 21 *)
G0 X  88.011 Y  31.242
M3 M8
G0 Z   2.000 
F150
G1 Z  -0.125
F70
G1 X  88.011 Y  31.877
G1 X  88.180 Y  32.258
G1 X  88.519 Y  32.597
G1 X  88.900 Y  32.766
G1 X  89.281 Y  32.808
G1 X  89.704 Y  32.724
G1 X  92.456 Y  35.433
G1 X  92.456 Y  35.687
G1 X  92.541 Y  36.026
G1 X  93.049 Y  36.534
G1 X  93.303 Y  36.618
G1 X  93.303 Y  36.618
G1 X  93.599 Y  36.618
G1 X  93.938 Y  36.534
G1 X  94.446 Y  36.026
G1 X  94.530 Y  35.687
G1 X  94.530 Y  35.475
G1 X  94.446 Y  35.137
G1 X  93.938 Y  34.629
G1 X  93.599 Y  34.544
G1 X  93.345 Y  34.544
G1 X  93.006 Y  34.671
G1 X  90.382 Y  32.089
G1 X  90.424 Y  31.792
G1 X  90.424 Y  31.242
G1 X  90.255 Y  30.861
G1 X  89.916 Y  30.522
G1 X  89.535 Y  30.353
G1 X  88.900 Y  30.353
G1 X  88.519 Y  30.522
G1 X  88.180 Y  30.861
G1 X  88.011 Y  31.242
F150
G1 Z   2.000
M9 M5

(* SHAPE Nr: 22 *)
G0 X  76.200 Y  30.480
M3 M8
G0 Z   2.000 
F150
G1 Z  -0.125
F70
G1 X  76.200 Y  32.597
G1 X  78.317 Y  32.597
G1 X  78.317 Y  32.046
G1 X  80.476 Y  32.046
G1 X  80.476 Y  32.131
G1 X  80.730 Y  32.427
G1 X  80.984 Y  32.639
G1 X  81.407 Y  32.808
G1 X  81.407 Y  32.808
G1 X  81.915 Y  32.766
G1 X  82.296 Y  32.597
G1 X  82.635 Y  32.258
G1 X  82.804 Y  31.877
G1 X  82.804 Y  31.242
G1 X  82.635 Y  30.861
G1 X  82.296 Y  30.522
G1 X  81.915 Y  30.353
G1 X  81.280 Y  30.353
G1 X  80.899 Y  30.522
G1 X  80.518 Y  30.903
G1 X  80.476 Y  31.073
G1 X  78.317 Y  31.073
G1 X  78.317 Y  30.480
G1 X  76.200 Y  30.480
F150
G1 Z   2.000
M9 M5

(* SHAPE Nr: 23 *)
G0 X  11.599 Y  24.172
M3 M8
G0 Z   2.000 
F150
G1 Z  -0.125
F70
G1 X  11.599 Y  24.680
G1 X  11.176 Y  24.723
G1 X  10.668 Y  25.231
G1 X  10.626 Y  29.760
G1 X  10.160 Y  29.760
G1 X  10.160 Y  30.395
G1 X   7.451 Y  30.395
G1 X   6.985 Y  29.930
G1 X   6.646 Y  29.845
G1 X   6.435 Y  29.845
G1 X   6.096 Y  29.930
G1 X   5.588 Y  30.438
G1 X   5.503 Y  30.776
G1 X   5.503 Y  30.988
G1 X   5.588 Y  31.327
G1 X   6.096 Y  31.835
G1 X   6.350 Y  31.919
G1 X   6.350 Y  31.919
G1 X   6.646 Y  31.919
G1 X   6.985 Y  31.835
G1 X   7.451 Y  31.369
G1 X  10.160 Y  31.369
G1 X  10.160 Y  31.623
G1 X  12.023 Y  31.623
G1 X  12.023 Y  29.760
G1 X  11.599 Y  29.760
G1 X  11.599 Y  26.035
G1 X  13.462 Y  26.035
G1 X  13.462 Y  24.172
G1 X  11.599 Y  24.172
F150
G1 Z   2.000
M9 M5

(* SHAPE Nr: 24 *)
G0 X 104.987 Y  30.184
M3 M8
G0 Z   2.000 
F150
G1 Z  -0.125
F70
G1 X 104.944 Y  30.607
G1 X 105.029 Y  30.946
G1 X 105.283 Y  31.327
G1 X 105.622 Y  31.538
G1 X 105.918 Y  31.665
G1 X 105.918 Y  31.665
G1 X 106.426 Y  31.623
G1 X 106.849 Y  31.369
G1 X 107.146 Y  31.030
G1 X 110.151 Y  30.946
G1 X 110.405 Y  30.692
G1 X 110.448 Y  23.072
G1 X 110.913 Y  22.606
G1 X 110.998 Y  22.267
G1 X 110.998 Y  22.056
G1 X 110.913 Y  21.717
G1 X 110.405 Y  21.209
G1 X 110.067 Y  21.124
G1 X 109.855 Y  21.124
G1 X 109.516 Y  21.209
G1 X 109.008 Y  21.717
G1 X 108.924 Y  22.056
G1 X 108.924 Y  22.267
G1 X 109.008 Y  22.606
G1 X 109.474 Y  23.072
G1 X 109.474 Y  30.014
G1 X 107.146 Y  30.014
G1 X 106.849 Y  29.633
G1 X 106.426 Y  29.379
G1 X 105.791 Y  29.379
G1 X 105.452 Y  29.549
G1 X 105.198 Y  29.760
G1 X 104.987 Y  30.184
F150
G1 Z   2.000
M9 M5

(* SHAPE Nr: 25 *)
G0 X  32.512 Y  24.723
M3 M8
G0 Z   2.000 
F150
G1 Z  -0.125
F70
G1 X  32.427 Y  25.061
G1 X  32.427 Y  25.273
G1 X  32.512 Y  25.612
G1 X  32.978 Y  26.077
G1 X  32.978 Y  28.829
G1 X  32.512 Y  29.295
G1 X  32.427 Y  29.633
G1 X  32.427 Y  29.845
G1 X  32.512 Y  30.184
G1 X  33.020 Y  30.692
G1 X  33.274 Y  30.776
G1 X  33.274 Y  30.776
G1 X  33.570 Y  30.776
G1 X  33.909 Y  30.692
G1 X  34.417 Y  30.184
G1 X  34.502 Y  29.845
G1 X  34.502 Y  29.633
G1 X  34.417 Y  29.295
G1 X  33.951 Y  28.829
G1 X  33.951 Y  26.077
G1 X  34.417 Y  25.612
G1 X  34.502 Y  25.273
G1 X  34.502 Y  25.061
G1 X  34.417 Y  24.723
G1 X  33.909 Y  24.215
G1 X  33.570 Y  24.130
G1 X  33.359 Y  24.130
G1 X  33.020 Y  24.215
G1 X  32.512 Y  24.723
F150
G1 Z   2.000
M9 M5

(* SHAPE Nr: 26 *)
G0 X  37.592 Y  24.723
M3 M8
G0 Z   2.000 
F150
G1 Z  -0.125
F70
G1 X  37.507 Y  25.061
G1 X  37.507 Y  25.273
G1 X  37.592 Y  25.612
G1 X  38.058 Y  26.077
G1 X  38.058 Y  28.829
G1 X  37.592 Y  29.295
G1 X  37.507 Y  29.633
G1 X  37.507 Y  29.845
G1 X  37.592 Y  30.184
G1 X  38.100 Y  30.692
G1 X  38.354 Y  30.776
G1 X  38.354 Y  30.776
G1 X  38.650 Y  30.776
G1 X  38.989 Y  30.692
G1 X  39.455 Y  30.226
G1 X  40.174 Y  30.226
G1 X  40.640 Y  30.692
G1 X  40.979 Y  30.776
G1 X  41.190 Y  30.776
G1 X  41.529 Y  30.692
G1 X  42.037 Y  30.184
G1 X  42.122 Y  29.845
G1 X  42.122 Y  29.633
G1 X  42.037 Y  29.295
G1 X  41.529 Y  28.787
G1 X  41.190 Y  28.702
G1 X  40.979 Y  28.702
G1 X  40.640 Y  28.787
G1 X  40.174 Y  29.252
G1 X  39.455 Y  29.252
G1 X  39.031 Y  28.829
G1 X  39.031 Y  26.077
G1 X  39.497 Y  25.612
G1 X  39.582 Y  25.273
G1 X  39.582 Y  25.061
G1 X  39.497 Y  24.723
G1 X  38.989 Y  24.215
G1 X  38.650 Y  24.130
G1 X  38.439 Y  24.130
G1 X  38.100 Y  24.215
G1 X  37.592 Y  24.723
F150
G1 Z   2.000
M9 M5

(* SHAPE Nr: 27 *)
G0 X  43.180 Y  24.850
M3 M8
G0 Z   2.000 
F150
G1 Z  -0.125
F70
G1 X  43.138 Y  28.829
G1 X  42.672 Y  29.295
G1 X  42.587 Y  29.633
G1 X  42.587 Y  29.845
G1 X  42.672 Y  30.184
G1 X  43.180 Y  30.692
G1 X  43.434 Y  30.776
G1 X  43.434 Y  30.776
G1 X  43.730 Y  30.776
G1 X  44.069 Y  30.692
G1 X  44.577 Y  30.184
G1 X  44.662 Y  29.845
G1 X  44.662 Y  29.633
G1 X  44.577 Y  29.295
G1 X  44.111 Y  28.829
G1 X  44.111 Y  25.527
G1 X  45.043 Y  25.527
G1 X  45.508 Y  25.993
G1 X  45.847 Y  26.077
G1 X  46.059 Y  26.077
G1 X  46.397 Y  25.993
G1 X  46.863 Y  25.527
G1 X  50.080 Y  25.527
G1 X  50.334 Y  25.696
G1 X  50.588 Y  25.781
G1 X  50.842 Y  25.781
G1 X  51.181 Y  25.696
G1 X  51.689 Y  25.188
G1 X  51.774 Y  24.850
G1 X  51.774 Y  24.638
G1 X  51.689 Y  24.299
G1 X  51.181 Y  23.791
G1 X  50.842 Y  23.707
G1 X  50.631 Y  23.707
G1 X  50.292 Y  23.791
G1 X  49.784 Y  24.299
G1 X  49.742 Y  24.553
G1 X  46.863 Y  24.553
G1 X  46.397 Y  24.088
G1 X  46.059 Y  24.003
G1 X  45.847 Y  24.003
G1 X  45.508 Y  24.088
G1 X  45.043 Y  24.553
G1 X  43.434 Y  24.596
G1 X  43.180 Y  24.850
F150
G1 Z   2.000
M9 M5

(* SHAPE Nr: 28 *)
G0 X  96.478 Y  14.266
M3 M8
G0 Z   2.000 
F150
G1 Z  -0.125
F70
G1 X  96.478 Y  14.563
G1 X  96.605 Y  14.986
G1 X  97.113 Y  15.494
G1 X  97.536 Y  15.621
G1 X  97.832 Y  15.621
G1 X  98.256 Y  15.494
G1 X  98.764 Y  14.986
G1 X  98.891 Y  14.563
G1 X  98.891 Y  14.266
G1 X  98.764 Y  13.843
G1 X  98.383 Y  13.420
G1 X  98.171 Y  13.335
G1 X  98.171 Y  12.996
G1 X 102.320 Y  12.996
G1 X 102.362 Y  19.854
G1 X 104.140 Y  21.675
G1 X 104.098 Y  22.056
G1 X 104.182 Y  22.437
G1 X 104.690 Y  22.945
G1 X 104.944 Y  23.029
G1 X 104.944 Y  23.029
G1 X 105.241 Y  23.029
G1 X 105.579 Y  22.945
G1 X 106.087 Y  22.437
G1 X 106.172 Y  22.098
G1 X 106.172 Y  21.886
G1 X 106.087 Y  21.548
G1 X 105.579 Y  21.040
G1 X 105.198 Y  20.955
G1 X 104.775 Y  20.997
G1 X 103.293 Y  19.473
G1 X 103.251 Y  12.531
G1 X 102.785 Y  12.065
G1 X  97.494 Y  12.065
G1 X  97.240 Y  12.319
G1 X  97.197 Y  13.335
G1 X  96.986 Y  13.420
G1 X  96.605 Y  13.843
G1 X  96.478 Y  14.266
F150
G1 Z   2.000
M9 M5

(* SHAPE Nr: 29 *)
G0 X  12.065 Y  16.552
M3 M8
G0 Z   2.000 
F150
G1 Z  -0.125
F70
G1 X  11.557 Y  17.060
G1 X  11.472 Y  17.399
G1 X  11.472 Y  17.611
G1 X  11.557 Y  17.949
G1 X  12.065 Y  18.457
G1 X  12.404 Y  18.542
G1 X  12.615 Y  18.542
G1 X  12.954 Y  18.457
G1 X  13.462 Y  17.949
G1 X  13.547 Y  17.568
G1 X  13.504 Y  17.187
G1 X  13.758 Y  16.891
G1 X  16.679 Y  16.891
G1 X  16.679 Y  19.600
G1 X  16.214 Y  20.066
G1 X  16.129 Y  20.405
G1 X  16.129 Y  20.616
G1 X  16.214 Y  20.955
G1 X  16.722 Y  21.463
G1 X  16.976 Y  21.548
G1 X  16.976 Y  21.548
G1 X  17.272 Y  21.548
G1 X  17.611 Y  21.463
G1 X  18.119 Y  20.955
G1 X  18.203 Y  20.616
G1 X  18.203 Y  20.405
G1 X  18.119 Y  20.066
G1 X  17.653 Y  19.600
G1 X  17.653 Y  16.891
G1 X  41.487 Y  16.891
G1 X  41.487 Y  16.933
G1 X  41.021 Y  17.399
G1 X  40.936 Y  17.738
G1 X  40.936 Y  17.949
G1 X  41.021 Y  18.288
G1 X  41.529 Y  18.796
G1 X  41.868 Y  18.881
G1 X  42.079 Y  18.881
G1 X  42.418 Y  18.796
G1 X  42.926 Y  18.288
G1 X  43.011 Y  17.949
G1 X  43.011 Y  17.738
G1 X  42.926 Y  17.399
G1 X  42.460 Y  16.933
G1 X  42.418 Y  16.214
G1 X  42.164 Y  15.960
G1 X  13.420 Y  15.960
G1 X  12.827 Y  16.510
G1 X  12.446 Y  16.468
G1 X  12.065 Y  16.552
F150
G1 Z   2.000
M9 M5

(* SHAPE Nr: 30 *)
G0 X  67.987 Y  17.568
M3 M8
G0 Z   2.000 
F150
G1 Z  -0.125
F70
G1 X  67.903 Y  17.907
G1 X  67.903 Y  18.119
G1 X  67.987 Y  18.457
G1 X  68.495 Y  18.965
G1 X  68.749 Y  19.050
G1 X  68.749 Y  19.050
G1 X  69.046 Y  19.050
G1 X  69.384 Y  18.965
G1 X  69.892 Y  18.457
G1 X  69.977 Y  18.119
G1 X  69.977 Y  17.907
G1 X  69.892 Y  17.568
G1 X  69.384 Y  17.060
G1 X  69.046 Y  16.976
G1 X  68.834 Y  16.976
G1 X  68.495 Y  17.060
G1 X  67.987 Y  17.568
F150
G1 Z   2.000
M9 M5

(* SHAPE Nr: 31 *)
G0 X  80.349 Y  15.071
M3 M8
G0 Z   2.000 
F150
G1 Z  -0.125
F70
G1 X  80.349 Y  17.568
G1 X  81.111 Y  17.568
G1 X  81.153 Y  18.669
G1 X  81.322 Y  18.881
G1 X  81.492 Y  18.965
G1 X  81.492 Y  18.965
G1 X  95.335 Y  18.923
G1 X  95.589 Y  18.669
G1 X  95.631 Y  15.494
G1 X  95.843 Y  15.409
G1 X  96.224 Y  14.986
G1 X  96.351 Y  14.563
G1 X  96.351 Y  14.266
G1 X  96.224 Y  13.843
G1 X  95.843 Y  13.420
G1 X  95.631 Y  13.335
G1 X  95.631 Y  10.160
G1 X  95.843 Y  10.160
G1 X  95.843 Y   8.297
G1 X  93.980 Y   8.297
G1 X  93.980 Y  10.160
G1 X  94.657 Y  10.160
G1 X  94.657 Y  13.335
G1 X  94.446 Y  13.420
G1 X  94.065 Y  13.843
G1 X  93.938 Y  14.266
G1 X  93.938 Y  14.563
G1 X  94.065 Y  14.986
G1 X  94.446 Y  15.409
G1 X  94.657 Y  15.494
G1 X  94.657 Y  17.992
G1 X  82.084 Y  17.992
G1 X  82.084 Y  17.568
G1 X  82.846 Y  17.568
G1 X  82.846 Y  15.071
G1 X  80.349 Y  15.071
F150
G1 Z   2.000
M9 M5

(* SHAPE Nr: 32 *)
G0 X  48.810 Y  13.208
M3 M8
G0 Z   2.000 
F150
G1 Z  -0.125
F70
G1 X  48.810 Y  15.071
G1 X  49.234 Y  15.071
G1 X  49.234 Y  16.891
G1 X  48.641 Y  16.891
G1 X  48.641 Y  18.754
G1 X  48.641 Y  18.754
G1 X  50.504 Y  18.754
G1 X  50.504 Y  16.891
G1 X  50.207 Y  16.891
G1 X  50.207 Y  15.071
G1 X  50.673 Y  15.071
G1 X  50.673 Y  13.208
G1 X  48.810 Y  13.208
F150
G1 Z   2.000
M9 M5

(* SHAPE Nr: 33 *)
G0 X  75.269 Y   9.779
M3 M8
G0 Z   2.000 
F150
G1 Z  -0.125
F70
G1 X  75.269 Y  11.896
G1 X  77.385 Y  11.896
G1 X  77.385 Y  10.668
G1 X  78.528 Y  10.668
G1 X  78.994 Y  11.134
G1 X  79.333 Y  11.218
G1 X  79.544 Y  11.218
G1 X  79.883 Y  11.134
G1 X  80.391 Y  10.626
G1 X  80.476 Y  10.245
G1 X  80.433 Y   9.864
G1 X  80.560 Y   9.694
G1 X  86.360 Y   9.694
G1 X  86.826 Y  10.160
G1 X  87.164 Y  10.245
G1 X  87.461 Y  10.245
G1 X  87.588 Y  10.160
G1 X  88.731 Y  11.261
G1 X  88.731 Y  15.198
G1 X  88.561 Y  15.240
G1 X  88.180 Y  15.621
G1 X  88.011 Y  16.002
G1 X  87.969 Y  16.425
G1 X  88.096 Y  16.891
G1 X  88.350 Y  17.187
G1 X  88.604 Y  17.399
G1 X  89.027 Y  17.568
G1 X  89.027 Y  17.568
G1 X  89.535 Y  17.526
G1 X  89.916 Y  17.357
G1 X  90.255 Y  17.018
G1 X  90.424 Y  16.637
G1 X  90.424 Y  16.002
G1 X  90.255 Y  15.621
G1 X  89.874 Y  15.240
G1 X  89.704 Y  15.198
G1 X  89.662 Y  10.922
G1 X  88.265 Y   9.483
G1 X  88.307 Y   9.144
G1 X  88.223 Y   8.763
G1 X  87.715 Y   8.255
G1 X  87.376 Y   8.170
G1 X  87.164 Y   8.170
G1 X  86.826 Y   8.255
G1 X  86.360 Y   8.721
G1 X  80.222 Y   8.763
G1 X  79.756 Y   9.186
G1 X  79.375 Y   9.144
G1 X  78.994 Y   9.229
G1 X  78.528 Y   9.694
G1 X  76.793 Y   9.737
G1 X  75.269 Y   9.779
F150
G1 Z   2.000
M9 M5
G0 X   0.000 Y   0.000
M2 (Program end)
